!!!!SEGMENT: pl-cz--iii-176--004_elsner-jozef--hymni-statio-ecce-panis-angelorum.krn
!!!cenid: 18xx:21
!!!COM: Elsner, Józef
!!!COM-rismid: pe30000957
!!!CDT: 1769/06/01-1854/04/18
!!!CNT: Polish
!!!GTL: Hymni statio
!!!OTL: Ecce panis angelorum
!!!PDT:
!!!AGN: Sacred
!!!SMS-siglum: PL-CZ
!!!SMS-shelfmark: III-176
!!!SMS-shelfwork: 004 G
!!!NIFC-rismid:
!!!URL-scan: http://repozytorium.nifc.pl/skany/pl-cz-nut--iii-176
!!!ONB-nifc:
**kern	**dynam	**kern	**dynam	**kern	**text	**kern	**text	**kern	**text	**dynam	**kern	**text	**dynam	**kern	**text	**dynam	**kern	**text	**kern	**text	**dynam	**kern	**text	**dynam
*part10	*part10	*part5	*part5	*part9	*part9	*part8	*part8	*part7	*part7	*part7	*part6	*part6	*part6	*part4	*part4	*part4	*part3	*part3	*part2	*part2	*part2	*part1	*part1	*part1
*staff10	*	*staff5	*	*staff9	*staff9	*staff8	*staff8	*staff7	*staff7	*	*staff6	*staff6	*	*staff4	*staff4	*	*staff3	*staff3	*staff2	*staff2	*	*staff1	*staff1	*
*I"Violone	*	*I"Violone	*	*I"Basso	*	*I"Tenore	*	*I"Alto	*	*	*I"Canto	*	*	*I"Basso	*	*	*I"Tenore	*	*I"Alto	*	*	*I"Canto	*	*
*	*	*	*	*Coro2	*	*Coro2	*	*Coro2	*	*	*Coro2	*	*	*Coro1	*	*	*Coro1	*	*Coro1	*	*	*Coro1	*	*
*I'Vlne	*	*I'Vlne	*	*I'B	*	*I'T	*	*I'A	*	*	*I'C	*	*	*I'B	*	*	*I'T	*	*I'A	*	*	*I'C	*	*
*clefF4	*	*clefF4	*	*clefF4	*	*clefC4	*	*clefC3	*	*	*clefC1	*	*	*clefF4	*	*	*clefC4	*	*clefC3	*	*	*clefC1	*	*
*k[f#]	*	*k[f#]	*	*k[f#]	*	*k[f#]	*	*k[f#]	*	*	*k[f#]	*	*	*k[f#]	*	*	*k[f#]	*	*k[f#]	*	*	*k[f#]	*	*
*G:	*	*G:	*	*G:	*	*G:	*	*G:	*	*	*G:	*	*	*G:	*	*	*G:	*	*G:	*	*	*G:	*	*
*M2/4	*	*M2/4	*	*M2/4	*	*M2/4	*	*M2/4	*	*	*M2/4	*	*	*M2/4	*	*	*M2/4	*	*M2/4	*	*	*M2/4	*	*
=1	=1	=1	=1	=1	=1	=1	=1	=1	=1	=1	=1	=1	=1	=1	=1	=1	=1	=1	=1	=1	=1	=1	=1	=1
!	!	!	!	!LO:TX:a:t=Andantino	!	!LO:TX:a:t=Andantino	!	!LO:TX:t=Andantino	!	!	!LO:TX:a:t=Andantino	!	!	!LO:TX:a:t=Andantino	!	!	!LO:TX:a:t=Andantino	!	!LO:TX:a:t=Andantino	!	!	!LO:TX:a:t=Andantino	!	!
2r	.	(>4.G\	.	2r	.	2r	.	2r	.	.	2r	.	.	(>4.G\	Ec-	.	(>4.B\	Ec-	(>4.g\	Ec-	.	4.g\	Ec-	<
.	.	8D\)	.	.	.	.	.	.	.	.	.	.	.	8D\)	.	.	8d\)	.	8f#\)	.	.	8a\	.	[
=2	=2	=2	=2	=2	=2	=2	=2	=2	=2	=2	=2	=2	=2	=2	=2	=2	=2	=2	=2	=2	=2	=2	=2	=2
!	!	!	!	!	!	!LO:SIC:v= kauda z prawej strony i tak we wszystkich kolejnych półnutach	!	!	!	!	!	!	!LO:HP:b	!	!	!	!	!	!	!	!	!	!	!
*^	*	*	*	*	*	*	*	*	*	*	*	*	*	*	*	*	*	*	*	*	*	*	*	*
*	*	*	*	*	*	*	*2\right	*	*	*	*	*	*	*	*	*	*	*	*	*	*	*	*	*	*
4D\	4.D\	.	4D\	.	(4.D\	Ec-	2d\	Ec-	(>4.f#\	Ec-	.	(>4.a\	Ec-	<	4D\	-ce	.	4d\	-ce	4f#\	-ce	.	4a\	-ce	.
4G\	.	.	4r	.	.	.	.	.	.	.	.	.	.	.	4r	.	.	4r	.	4r	.	.	4r	.	.
.	8GG\	.	.	.	8G\) 8GG\	.	.	.	8g\)	.	.	8b\)	.	[[	.	.	.	.	.	.	.	.	.	.	.
=3	=3	=3	=3	=3	=3	=3	=3	=3	=3	=3	=3	=3	=3	=3	=3	=3	=3	=3	=3	=3	=3	=3	=3	=3	=3
!	!	!	!	!	!	!	!	!	!	!	!	!	!	!	!	!	!	!	!	!	!	!	!LO:SIC:v=kauda z prawej strony nuty - i tak przy wszystkich półnutach	!	!
!	!	!	!LO:SIC:v=kauda z prawej strony i tak we wszystkich półnutach do końca partii	!	!	!	!	!	!	!	!	!	!	!	!LO:SIC:v= kauda z prawej strony	!	!	!LO:SIC:v=kauda z prawej strony i tak przy wszystkich półnutach	!	!LO:SIC:v=kauda po prawej stronie	!	!	!LO:TX:a:t=dol:	!	!
*	*	*	*2\right	*	*	*	*	*	*	*	*	*	*	*	*2\right	*	*	*2\right	*	*2\right	*	*	*2\right	*	*
4G\	4GG\	.	(>2G\	.	4G\ 4GG\	-ce	4d\	-ce	4g\	-ce	.	4b\	-ce	[	(>2G\	Pa-	.	[2d\	Pa-	(>2g\	Pa-	.	[2b\	Pa-	.
4r	4ryy	.	.	.	4r	.	4r	.	4r	.	.	4r	.	.	.	.	.	.	.	.	.	.	.	.	.
*v	*v	*	*	*	*	*	*	*	*	*	*	*	*	*	*	*	*	*	*	*	*	*	*	*	*
=4	=4	=4	=4	=4	=4	=4	=4	=4	=4	=4	=4	=4	=4	=4	=4	=4	=4	=4	=4	=4	=4	=4	=4	=4
2r	.	4E\)	.	2r	.	2r	.	2r	.	.	2r	.	.	4E\)	.	.	4d\]	.	4g#X\)	.	.	4b\]	.	.
.	.	4A\	.	.	.	.	.	.	.	.	.	.	.	4A\	-nis	.	4c\	-nis	[4a\	-nis	.	[4cc\	-nis	.
=5	=5	=5	=5	=5	=5	=5	=5	=5	=5	=5	=5	=5	=5	=5	=5	=5	=5	=5	=5	=5	=5	=5	=5	=5
2r	.	4F#\	.	2r	.	2r	.	2r	.	.	2r	.	.	4F#\	an-	.	4d\	an-	4a\]	an-	.	4cc\]	an-	.
.	.	4G\	.	.	.	.	.	.	.	.	.	.	.	4G\	-ge-	.	4d\	-ge-	4gn\	-ge-	.	4b\	-ge-	.
=6	=6	=6	=6	=6	=6	=6	=6	=6	=6	=6	=6	=6	=6	=6	=6	=6	=6	=6	=6	=6	=6	=6	=6	=6
4r	.	4D\	.	4r	.	4r	.	4r	.	.	4r	.	.	4D\	-lo-	.	4d\	-lo-	8.f#\L	-lo-	.	8.a\L	-lo-	.
.	.	.	.	.	.	.	.	.	.	.	.	.	.	.	.	.	.	.	16g\Jk	.	.	16b\Jk	.	.
8F#\	.	8D\	.	8F#\	Pa-	8d\	Pa-	8a\	Pa-	.	8cc\L	Pa-	.	8D\	-rum	.	8d\	-rum	8f#\	-rum	.	8a\	-rum	.
8G\	.	8r	.	8G\	-nis	8d\	-nis	8g\	-nis	.	8b\J	-nis	.	8r	.	.	8r	.	8r	.	.	8r	.	.
=7	=7	=7	=7	=7	=7	=7	=7	=7	=7	=7	=7	=7	=7	=7	=7	=7	=7	=7	=7	=7	=7	=7	=7	=7
!LO:PB:g=original	!	!	!	!	!	!	!	!	!	!	!LB:PB:g=original	!	!LO:PB:g=original	!LO:PB:g=original	!	!	!	!	!	!	!	!LO:PB:g=original	!	!
4.C\	.	2r	.	4.C/	an-	4.e\	an-	4.e\	an-	.	4.a\	an-	.	2r	.	.	2r	.	2r	.	.	2r	.	.
8C#X\	.	.	.	8C#X/	-ge-	8A\	-ge-	8e\	-ge-	.	8g\	-ge-	.	.	.	.	.	.	.	.	.	.	.	.
=8	=8	=8	=8	=8	=8	=8	=8	=8	=8	=8	=8	=8	=8	=8	=8	=8	=8	=8	=8	=8	=8	=8	=8	=8
!	!	!	!	!LO:PB:g=original	!	!LO:PB:g=original	!	!LO:PB:g=original	!	!	!	!	!	!	!	!	!	!	!	!	!	!	!	!
4D\	.	2r	.	4D\	-lo-	4A/	-lo-	4d\	-lo-	.	8.g\L	-lo-	.	2r	.	.	(>4d\	fa-	2r	.	.	(>4dd\	fa-	.
.	.	.	.	.	.	.	.	.	.	.	16f#/Jk	.	.	.	.	.	.	.	.	.	.	.	.	.
8D\	.	.	.	8D\	-rum	8A/	-rum	8d\	-rum,	.	8f#/	-rum,	.	.	.	.	16d\LL	.	.	.	.	16dd\LL	.	.
.	.	.	.	.	.	.	.	.	.	.	.	.	.	.	.	.	16c\	.	.	.	.	16cc\	.	.
8r	.	.	.	8r	.	8r	.	8r	.	.	8r	.	.	.	.	.	16B\)	.	.	.	.	16b\	.	.
.	.	.	.	.	.	.	.	.	.	.	.	.	.	.	.	.	16A\JJ	.	.	.	.	16a\JJ)	.	.
=9	=9	=9	=9	=9	=9	=9	=9	=9	=9	=9	=9	=9	=9	=9	=9	=9	=9	=9	=9	=9	=9	=9	=9	=9
!	!	!	!	!	!	!	!	!	!	!	!	!	!	!	!	!	!	!	!	!	!	!	!	!LO:DY:a
2r	.	(>4.D\	.	2r	.	2r	.	2r	.	.	2r	.	.	(>4.D\	fa-	.	2d\	.	(>4.f#\	fa-	.	(>4.a\	.	<
.	.	8G\) 8GG\	.	.	.	.	.	.	.	.	.	.	.	8G\) 8GG\	.	.	.	.	8g\)	.	.	8b\)	.	[[
=10	=10	=10	=10	=10	=10	=10	=10	=10	=10	=10	=10	=10	=10	=10	=10	=10	=10	=10	=10	=10	=10	=10	=10	=10
!	!	!	!	!	!	!	!	!LO:SIC:v= pałeczka z prawej strony i tak we wszystkich kolejnych półnutach	!	!	!LO:DY:a	!	!	!	!	!	!	!	!	!	!	!	!	!
*	*	*	*	*	*	*	*	*	*	*	*	*	*	*^	*	*	*	*	*	*	*	*	*	*
*	*	*	*	*	*	*	*	*2\right	*	*	*	*	*	*	*	*	*	*	*	*	*	*	*	*	*
4.G\	.	4G\ 4GG\	.	(>4.G\	fa-	(>4.d\	fa-	[2g\	fa-	.	(>4.b\	fa-	<	4G\	4GG\	-ctus	.	4d\	-ctus	4g\	-ctus	.	4b\	-ctus	[
.	.	4r	.	.	.	.	.	.	.	.	.	.	.	4rcyy	4rF	.	.	4r	.	4r	.	.	4r	.	.
8E\	.	.	.	8E\)	.	8c\)	.	.	.	.	8cc\)	.	[[	.	.	.	.	.	.	.	.	.	.	.	.
*	*	*	*	*	*	*	*	*	*	*	*	*	*	*	*	*	*	*	*	*	*	*	*	*	*
*	*	*	*	*	*	*	*	*	*	*	*	*	*	*v	*v	*	*	*	*	*	*	*	*	*	*
=11	=11	=11	=11	=11	=11	=11	=11	=11	=11	=11	=11	=11	=11	=11	=11	=11	=11	=11	=11	=11	=11	=11	=11	=11
!	!	!LO:N:vis=2.	!	!	!	!	!	!	!	!	!	!	!	!	!	!	!LO:PB:g=original	!	!	!	!	!	!	!
4E\	.	[2C/	.	4E\	-ctus	4c\	-ctus	4g\]	-ctus	.	4cc\	-ctus	[	[2C/	ci-	.	(>2c\	ci-	(>2g\	ci-	.	[2ee\	ci-	.
4r	.	.	.	4r	.	4r	.	4r	.	.	4r	.	.	.	.	.	.	.	.	.	.	.	.	.
=12	=12	=12	=12	=12	=12	=12	=12	=12	=12	=12	=12	=12	=12	=12	=12	=12	=12	=12	=12	=12	=12	=12	=12	=12
2r	.	4C/]	.	2r	.	2r	.	2r	.	.	2r	.	.	4C/]	.	.	4A\)	.	4f#\)	.	.	4ee\]	.	.
.	.	4BB/	.	.	.	.	.	.	.	.	.	.	.	4BB/	-bus	.	4d\	-bus	[4g\	-bus	.	4dd\	-bus	.
=13	=13	=13	=13	=13	=13	=13	=13	=13	=13	=13	=13	=13	=13	=13	=13	=13	=13	=13	=13	=13	=13	=13	=13	=13
2r	.	4AA/	.	2r	.	2r	.	2r	.	.	2r	.	.	4AA/	vi-	.	4e\	vi-	4g\]	vi-	.	4cc\	vi-	.
.	.	4D/	.	.	.	.	.	.	.	.	.	.	.	4D\	-a-	.	4d\	-a-	4f#\	-a-	.	4a\	-a-	.
=14	=14	=14	=14	=14	=14	=14	=14	=14	=14	=14	=14	=14	=14	=14	=14	=14	=14	=14	=14	=14	=14	=14	=14	=14
4r	.	4GG/	.	4r	.	4r	.	4r	.	.	4r	.	.	4GG/	-to-	.	8.d\L	-to-	4g\	-to-	.	8.b\L	-to-	.
.	.	.	.	.	.	.	.	.	.	.	.	.	.	.	.	.	16e\Jk	.	.	.	.	16cc\Jk	.	.
8G\	.	8GG/	.	8G\	ci-	8B\	ci-	8g\	ci-	.	8dd\	ci-	.	8GG/	-rum	.	8d\	-rum	8g\	-rum	.	8b\	-rum,	.
8C\	.	8r	.	8C/	-bus	8c\	-bus	8g\	-bus	.	8ee\	-bus	.	8r	.	.	8r	.	8r	.	.	8r	.	.
=15	=15	=15	=15	=15	=15	=15	=15	=15	=15	=15	=15	=15	=15	=15	=15	=15	=15	=15	=15	=15	=15	=15	=15	=15
4D\	.	2r	.	4D\	vi-	4B\	vi-	4g\	vi-	.	(>4.dd\	vi-	.	2r	.	.	2r	.	2r	.	.	2r	.	.
4D\	.	.	.	4D\	-a-	4A\	-a-	4f#\	-a-	.	.	.	.	.	.	.	.	.	.	.	.	.	.	.
.	.	.	.	.	.	.	.	.	.	.	8cc\)	-a-	.	.	.	.	.	.	.	.	.	.	.	.
=16	=16	=16	=16	=16	=16	=16	=16	=16	=16	=16	=16	=16	=16	=16	=16	=16	=16	=16	=16	=16	=16	=16	=16	=16
!LO:PB:g=original	!	!	!	!	!	!	!	!	!	!	!LO:PB:g=original	!	!	!	!	!	!	!	!	!	!	!LO:LB:g=original	!	!
4G\	.	2r	.	4G\	-to-	(>8.GL\	-to-	4g\	-to-	.	(>8.b\L	-to-	.	2r	.	.	(>4g\	ve-	2r	.	.	(>4gg\	ve-	.
.	.	.	.	.	.	16A\Jk	.	.	.	.	16cc\Jk)	.	.	.	.	.	.	.	.	.	.	.	.	.
8G\	.	.	.	8G\	-rum,	8B\)	-rum,	8g\	-rum	.	8dd\	-rum,	.	.	.	.	16g\LL	-re	.	.	.	16gg\LL	-re	.
.	.	.	.	.	.	.	.	.	.	.	.	.	.	.	.	.	16f#\)	.	.	.	.	16ff#\	.	.
8r	.	.	.	8r	.	8r	.	8r	.	.	8r	.	.	.	.	.	16e\	.	.	.	.	16ee\)	.	.
.	.	.	.	.	.	.	.	.	.	.	.	.	.	.	.	.	16d\JJ	.	.	.	.	16dd\JJ	.	.
=17	=17	=17	=17	=17	=17	=17	=17	=17	=17	=17	=17	=17	=17	=17	=17	=17	=17	=17	=17	=17	=17	=17	=17	=17
!	!	!	!	!	!	!	!	!	!	!	!	!	!	!	!	!	!LO:PB:g=original	!	!	!	!	!	!	!
2r	.	(>4c\	.	2r	.	2r	.	2r	.	.	2r	.	.	(>4c\	ve-	.	8.c\L	pa-	(>4ee\	ve-	.	(>8.ee\L	pa-	.
.	.	.	.	.	.	.	.	.	.	.	.	.	.	.	.	.	16d\Jk	.	.	.	.	16ff#\Jk)	.	.
.	.	16c\LL	.	.	.	.	.	.	.	.	.	.	.	16c\LL	.	.	8e\	-nis	16ee\LL	-re	.	8gg\	-nis	.
.	.	16B\JJ)	.	.	.	.	.	.	.	.	.	.	.	16B\	-re	.	.	.	16dd\	.	.	.	.	.
.	.	16A\LL	.	.	.	.	.	.	.	.	.	.	.	16A\)	.	.	8r	.	16cc\	.	.	8r	.	.
.	.	16G\JJ	.	.	.	.	.	.	.	.	.	.	.	16G\JJ	.	.	.	.	16b\JJ)	.	.	.	.	.
=18	=18	=18	=18	=18	=18	=18	=18	=18	=18	=18	=18	=18	=18	=18	=18	=18	=18	=18	=18	=18	=18	=18	=18	=18
!	!	!	!	!	!	!LO:PB:g=original	!	!	!	!	!	!	!	!	!	!	!	!	!	!	!	!	!	!
2r	.	8.F#\L	.	2r	.	(>4d\	ve-	2r	.	.	(>4dd\	ve-	.	(>8.F#\L	pa-	.	2r	.	(>8.a\L	pa-	.	2r	.	.
.	.	16G\Jk	.	.	.	.	.	.	.	.	.	.	.	16G\Jk)	.	.	.	.	16b\Jk)	.	.	.	.	.
.	.	8A\	.	.	.	16d\LL	-re	.	.	.	16dd\LL	-re	.	8A\	-nis	.	.	.	8cc\	-nis	.	.	.	.
.	.	.	.	.	.	16c\JJ)	.	.	.	.	16cc\	.	.	.	.	.	.	.	.	.	.	.	.	.
.	.	8r	.	.	.	16B\LL	.	.	.	.	16b\)	.	.	8r	.	.	.	.	8r	.	.	.	.	.
.	.	.	.	.	.	16A\JJ	.	.	.	.	16a\JJ	.	.	.	.	.	.	.	.	.	.	.	.	.
=19	=19	=19	=19	=19	=19	=19	=19	=19	=19	=19	=19	=19	=19	=19	=19	=19	=19	=19	=19	=19	=19	=19	=19	=19
!	!	!	!	!	!	!	!	!LO:PB:g=original	!	!	!	!	!	!LO:PB:g=original	!	!	!	!	!	!	!	!	!	!
(>4G\	.	2r	.	(>4G\	ve-	(>8.GL\	pa-	(>4b\	ve-	.	8.b\L	pa-	.	2r	.	.	2r	.	2r	.	.	2r	.	.
.	.	.	.	.	.	16A\Jk)	.	.	.	.	16cc\Jk	.	.	.	.	.	.	.	.	.	.	.	.	.
16G\LL	.	.	.	16G\LL	.	8B\	-nis	16b\LL)	.	.	8dd\	-nis	.	.	.	.	.	.	.	.	.	.	.	.
16F#\)	.	.	.	16F#\JJ)	.	.	.	16a\JJ	.	.	.	.	.	.	.	.	.	.	.	.	.	.	.	.
16E\	.	.	.	16E\LL	-re	8r	.	16g\LL	-re	.	8r	.	.	.	.	.	.	.	.	.	.	.	.	.
16D\JJ	.	.	.	16D\JJ	.	.	.	16f#\JJ	.	.	.	.	.	.	.	.	.	.	.	.	.	.	.	.
=20	=20	=20	=20	=20	=20	=20	=20	=20	=20	=20	=20	=20	=20	=20	=20	=20	=20	=20	=20	=20	=20	=20	=20	=20
!	!	!	!	!LO:PB:g=original	!	!	!	!	!	!	!	!	!	!	!	!	!	!	!	!	!	!	!	!
8C\	.	8C/	.	8C/	pa-	8c\	ve-	8e\	pa-	.	8ee\	ve-	.	8C/	ve-	.	(>8.c\L	ve-	8g\	ve-	.	(>8.ee\L	ve-	.
8r	.	8r	.	8r	.	8r	.	8r	.	.	8r	.	.	8r	.	.	.	.	8r	.	.	.	.	.
.	.	.	.	.	.	.	.	.	.	.	.	.	.	.	.	.	16d\Jk	.	.	.	.	16ff#\Jk	.	.
8C\	.	8C/	.	8C/	-nis	8c\	-re	8e\	-nis	.	8ee\	-re	.	8C/	-re	.	16e\LL)	-re	8g\	-re	.	16gg\LL)	-re	.
.	.	.	.	.	.	.	.	.	.	.	.	.	.	.	.	.	16B\JJ	.	.	.	.	16dd#X\	.	.
8r	.	8r	.	8r	.	8r	.	8r	.	.	8r	.	.	8r	.	.	16c\LL	.	8r	.	.	16ee\	.	.
.	.	.	.	.	.	.	.	.	.	.	.	.	.	.	.	.	16e\JJ	.	.	.	.	16cc\JJ	.	.
=21	=21	=21	=21	=21	=21	=21	=21	=21	=21	=21	=21	=21	=21	=21	=21	=21	=21	=21	=21	=21	=21	=21	=21	=21
8C\	.	8C/	.	8C/	pa-	(>8.e\L	pa-	8g\	{pa-	.	(>8.cc\L	pa-	.	8C/	pa-	.	8c\	pa-	8g\	pa-	.	8ee\	pa-	.
8r	.	8r	.	8r	.	.	.	8r	.	.	.	.	.	8r	.	.	8r	.	8r	.	.	8r	.	.
.	.	.	.	.	.	16f#\Jk	.	.	.	.	16dd\Jk	.	.	.	.	.	.	.	.	.	.	.	.	.
8C\	.	8C/	.	8C/	-nis	16g\LL)	.	8g\	-nis}	.	16ee\LL)	.	.	8C/	-nis	.	8c\	-nis	8g\	-nis	.	8ee\	-nis	.
.	.	.	.	.	.	16d#X\JJ	.	.	.	.	16b\JJ	.	.	.	.	.	.	.	.	.	.	.	.	.
8r	.	8r	.	8r	.	16e\LL	-nis	8r	.	.	16cc\LL	-nis	.	8r	.	.	8r	.	8r	.	.	8r	.	.
.	.	.	.	.	.	16c\JJ	.	.	.	.	16ee\JJ	.	.	.	.	.	.	.	.	.	.	.	.	.
=22	=22	=22	=22	=22	=22	=22	=22	=22	=22	=22	=22	=22	=22	=22	=22	=22	=22	=22	=22	=22	=22	=22	=22	=22
!	!	!	!	!	!	!	!	!	!	!	!	!	!	!	!	!	!LO:PB:g=original	!	!	!	!	!	!	!
8D\	.	8D/	.	8D/	fi-	8B\	fi-	8g\	fi-	.	[2dd\	fi-	.	8D\	fi-	.	8B\	fi-	8g\	fi-	.	[4dd\	fi-	.
8r	.	8r	.	8r	.	8r	.	8r	.	.	.	.	.	8r	.	.	8r	.	8r	.	.	.	.	>
8D\	.	8D/	.	8D/	-li-	8A\	-li-	8f#\	-li-	.	.	.	.	8D\	-li-	.	8A\	-li-	8f#\	-li-	.	16dd\LL]	.	.
.	.	.	.	.	.	.	.	.	.	.	.	.	.	.	.	.	.	.	.	.	.	16cc\JJ	.	.
8r	.	8r	.	8r	.	8r	.	8r	.	.	.	.	.	8r	.	.	8r	.	8r	.	.	16b\LL	-li-	.
.	.	.	.	.	.	.	.	.	.	.	.	.	.	.	.	.	.	.	.	.	.	16cc\JJ	.	]]
=23	=23	=23	=23	=23	=23	=23	=23	=23	=23	=23	=23	=23	=23	=23	=23	=23	=23	=23	=23	=23	=23	=23	=23	=23
!LO:LB:g=original	!	!	!	!	!	!	!	!	!	!	!LO:PB:g=original	!	!LO:LB:g=original	!	!	!	!	!	!	!	!	!	!	!
8.G\L	.	8G\L	.	8.G\	-o-	8.B\	-o-	8.g\	-o-	.	4dd\]	.	.	8G\	-o-	.	8E/	-o-	8g\	-o-	.	8b\L	-o-	]
.	.	16G\Jk	.	.	.	.	.	.	.	.	.	.	.	16G\	-rum	.	16E/	-rum	16g\	-rum	.	16b\Jk	-rum	.
16G\K	.	16r	.	16G\	-rum	16B\	-rum	16g\	-rum,	.	.	.	.	16r	.	.	16r	.	16r	.	.	16r	.	.
8.D\	.	4r	.	8.D/	fi-	8.A\	fi-	8.f#\	fi-	.	16dd\LL	.	.	4r	.	.	4r	.	4r	.	.	4r	.	.
.	.	.	.	.	.	.	.	.	.	.	16cc\JJ	.	.	.	.	.	.	.	.	.	.	.	.	.
.	.	.	.	.	.	.	.	.	.	.	16b\LL	-li-	.	.	.	.	.	.	.	.	.	.	.	.
16D\Jk	.	.	.	16D/	-li-	16A\	-li-	16f#\	-li-	.	16cc\JJ	.	.	.	.	.	.	.	.	.	.	.	.	.
=24	=24	=24	=24	=24	=24	=24	=24	=24	=24	=24	=24	=24	=24	=24	=24	=24	=24	=24	=24	=24	=24	=24	=24	=24
!	!	!	!	!	!	!LO:PB:g=original	!	!	!	!	!	!	!	!	!	!	!	!	!	!	!	!LO:PB:g=original	!	!
!	!	!	!	!	!	!	!	!	!	!	!	!	!	!	!	!	!	!	!	!	!	!	!	!LO:DY:a
8GG/L	.	2r	.	8GG/	-o-	16G/	-o-	8g\	-o-	.	8b\	-o-	.	2r	.	.	2r	.	2r	.	.	8r	.	p
.	.	.	.	.	.	16G/	-rum	.	.	.	.	.	.	.	.	.	.	.	.	.	.	.	.	.
16GG/Jk	.	.	.	16GG/	-rum	4G/	In	16g\	-rum,	.	16b\	-rum,	.	.	.	.	.	.	.	.	.	(>4g\	In	.
16r	.	.	.	16r	.	.	.	16r	.	.	16r	.	.	.	.	.	.	.	.	.	.	.	.	.
4r	.	.	.	4r	.	.	.	4r	.	.	4r	.	.	.	.	.	.	.	.	.	.	.	.	.
.	.	.	.	.	.	16ALL/	fi-	.	.	.	.	.	.	.	.	.	.	.	.	.	.	16a\LL	fi-	.
.	.	.	.	.	.	16B\JJ	.	.	.	.	.	.	.	.	.	.	.	.	.	.	.	16b\JJ)	.	.
=25	=25	=25	=25	=25	=25	=25	=25	=25	=25	=25	=25	=25	=25	=25	=25	=25	=25	=25	=25	=25	=25	=25	=25	=25
!	!	!	!	!	!	!	!	!LO:PB:g=original	!	!	!	!	!	!	!	!	!LO:PB:g=original	!	!	!	!	!	!	!
4.C/	.	4.C/	.	4.C/	In	8.c\L	-gu-	8r	.	.	8r	.	.	4.C/	In	.	8r	.	8r	.	.	(>8.cc\L	-gu-	.
!	!	!	!	!	!	!	!	!LO:TX:a:t=sota voce	!	!	!LO:TX:a:i:t=sota voce	!	!	!	!	!	!	!	!	!	!	!	!	!
.	.	.	.	.	.	.	.	16e\	In	.	16g\	In	.	.	.	.	16c\	In	16e\	In	.	.	.	.
.	.	.	.	.	.	16G/Jk	.	16e\	fi-	.	16g\	fi-	.	.	.	.	16c\	fi-	16e\	fi-	.	16g\Jk	.	.
.	.	.	.	.	.	4G/	-ris	16e\	-gu-	.	16g\	-gu-	.	.	.	.	16c\	-gu-	16e\	-gu-	.	4g\)	-ris	.
.	.	.	.	.	.	.	.	16e\	-ris	.	16g\	-ris	.	.	.	.	16c\	-ris	16e\	-ris	.	.	.	.
8C/	.	8C/	.	8C/	fi-	.	.	16e\	prae-	.	16g\	prae-	.	8C/	fi-	.	16c\	prae-	16e\	prae-	.	.	.	.
.	.	.	.	.	.	.	.	16e\	-sig-	.	16g\	-sig-	.	.	.	.	16c\	-sig-	16e\	-sig-	.	.	.	.
=26	=26	=26	=26	=26	=26	=26	=26	=26	=26	=26	=26	=26	=26	=26	=26	=26	=26	=26	=26	=26	=26	=26	=26	=26
4C/	.	4C/	.	4C/	-gu-	4.c\	prae-	16e\	-na-	.	16g\	-na-	.	4C/	-gu-	.	16c\	-na-	16e\	-na-	.	4.cc\	prae-	.
.	.	.	.	.	.	.	.	16e\	-tur	.	16g\	-tur	.	.	.	.	16c\	-tur	16e\	-tur	.	.	.	.
.	.	.	.	.	.	.	.	16e\	{In	.	16g\	{In	.	.	.	.	16c\	{In	16e\	{In	.	.	.	.
.	.	.	.	.	.	.	.	16e\	fi-	.	16g\	fi-	.	.	.	.	16c\	fi-	16e\	fi-	.	.	.	.
8C/	.	8C/	.	8C/	-ris	.	.	16e\	-gu-	.	16g\	-gu-	.	8C/	-ris	.	16c\	-gu-	16e\	-gu-	.	.	.	.
.	.	.	.	.	.	.	.	16e\	-ris	.	16g\	-ris	.	.	.	.	16c\	-ris	16e\	ris	.	.	.	.
8r	.	8r	.	8r	.	8e\	-sig-	16e\	prae-	.	16g\	pre-	.	8r	.	.	16c\	prae-	16e\	prae-	.	8ee\	-sig-	.
.	.	.	.	.	.	.	.	16e\	-sig	.	16g\	-sig-	.	.	.	.	16c\	-sig-	16e\	-sig-	.	.	.	.
=27	=27	=27	=27	=27	=27	=27	=27	=27	=27	=27	=27	=27	=27	=27	=27	=27	=27	=27	=27	=27	=27	=27	=27	=27
!	!	!	!	!	!	!	!	!	!	!	!LO:PB:g=original	!	!	!LO:PB:g=original	!	!	!	!	!	!	!	!	!	!
*2\right	*	*	*	*2\right	*	*	*	*	*	*	*	*	*	*	*	*	*	*	*	*	*	*	*	*
2G\	.	2G\	.	2G\	prae-	(>4.d\	-na-	16fn\	-na-	.	16g\	-na-	.	2G\	prae-	.	16B\	-na-	16fn\	-na-	.	(>4.dd\	-na-	.
.	.	.	.	.	.	.	.	16f\	-tur}	.	16g\	-tur}	.	.	.	.	16B\	-tur}	16f\	-tur}	.	.	.	.
.	.	.	.	.	.	.	.	16f\	Cum	.	16g\	cum	.	.	.	.	16B\	Cum	16f\	cum	.	.	.	.
.	.	.	.	.	.	.	.	16f\	I-	.	16g\	I-	.	.	.	.	16B\	I-	16f\	I-	.	.	.	.
!	!	!	!	!	!	!	!	!	!	!	!	!	!	!	!	!	!	!	!LO:PB:g=original	!	!	!	!	!
.	.	.	.	.	.	.	.	16f\	-sa-	.	16g\	-sa-	.	.	.	.	16B\	-sa-	16f\	-sa-	.	.	.	.
.	.	.	.	.	.	.	.	16f\	-ac	.	16g\	-ac	.	.	.	.	16B\	-ac	16f\	-ac	.	.	.	.
.	.	.	.	.	.	16d\LL	.	16f\	im-	.	16g\	im-	.	.	.	.	16B\	im-	16f\	im-	.	16dd\LL	.	.
.	.	.	.	.	.	16e\JJ)	.	16f\	-mo-	.	16g\	-mo-	.	.	.	.	16B\	-mo-	16f\	-mo-	.	16ee\JJ)	.	.
=28	=28	=28	=28	=28	=28	=28	=28	=28	=28	=28	=28	=28	=28	=28	=28	=28	=28	=28	=28	=28	=28	=28	=28	=28
!	!	!	!	!LO:PB:g=original	!	!	!	!LO:PB:g=original	!	!	!	!	!	!	!	!	!LO:PB:g=original	!	!	!	!	!	!	!
2C/	.	2C/	.	2C/	-sig-	4c\	-tur	16e\	-la-	.	16g\	-la-	.	2C/	-sig-	.	16c\	-la-	16e\	-la-	.	4cc\	-tur	.
.	.	.	.	.	.	.	.	16e\	-tur	.	16g\	-tur	.	.	.	.	16c\	-tur	16e\	-tur	.	.	.	.
.	.	.	.	.	.	.	.	16e\	{Cum	.	16g\	{cum	.	.	.	.	16c\	{Cum	16e\	{cum	.	.	.	.
.	.	.	.	.	.	.	.	16e\	I-	.	16g\	I-	.	.	.	.	16c\	I-	16e\	I-	.	.	.	.
.	.	.	.	.	.	8r	.	16e\	-sa-	.	16g\	-sa-	.	.	.	.	16c\	-sa-	16e\	sa-	.	8r	.	.
.	.	.	.	.	.	.	.	16e\	-ac	.	16g\	-ac	.	.	.	.	16c\	-ac	16e\	-ac	.	.	.	.
.	.	.	.	.	.	8c\	cum	16e\	im-	.	16g\	im-	.	.	.	.	16c\	-im-	16e\	im-	.	8cc\	cum	.
.	.	.	.	.	.	.	.	16e\	-mo-	.	16g\	-mo-	.	.	.	.	16c\	-mo-	16e\	-mo-	.	.	.	.
=29	=29	=29	=29	=29	=29	=29	=29	=29	=29	=29	=29	=29	=29	=29	=29	=29	=29	=29	=29	=29	=29	=29	=29	=29
2Fn\	.	2Fn\	.	2Fn\	-na-	(>8.c\L	I-	16fn\	-la-	.	16a\	-la-	.	2Fn\	-na-	.	16c\	-la-	16fn\	-la-	.	(>8.cc\L	I-	.
.	.	.	.	.	.	.	.	16f\	-tur}	.	16a\	-tur}	.	.	.	.	16c\	-tur}	16f\	-tur}	.	.	.	.
.	.	.	.	.	.	.	.	16f\	In	.	16a\	in	.	.	.	.	16c\	In	16f\	In	.	.	.	.
.	.	.	.	.	.	16A\Jk)	-sa-	16f\	fi-	.	16a\	fi-	.	.	.	.	16c\	fi-	16f\	fi-	.	16a\Jk)	-sa-	.
.	.	.	.	.	.	4A\	-ac	16f\	-gu-	.	16a\	-gu-	.	.	.	.	16c\	-gu-	16f\	-gu-	.	4a\	-ac	.
.	.	.	.	.	.	.	.	16f\	-ris	.	16a\	-ris	.	.	.	.	16c\	-ris	16f\	-ris	.	.	.	.
.	.	.	.	.	.	.	.	16f\	prae-	.	16a\	prae-	.	.	.	.	16c\	prae-	16f\	prae-	.	.	.	.
.	.	.	.	.	.	.	.	16f\	-sig-	.	16a\	-sig-	.	.	.	.	16c\	-sig-	16f\	-sig-	.	.	.	.
=30	=30	=30	=30	=30	=30	=30	=30	=30	=30	=30	=30	=30	=30	=30	=30	=30	=30	=30	=30	=30	=30	=30	=30	=30
!	!	!	!	!	!	!	!	!	!	!	!LO:PB:g=original	!	!	!	!	!	!	!	!	!	!	!	!	!
2D\	.	2D\	.	2D\	-tur	4.fn\	im-	16fn\	-na-	.	16a\	-na-	.	2D\	-tur	.	16d\	-na-	16fn\	-na-	.	(>4.ff#\	im-	.
.	.	.	.	.	.	.	.	16f\	-tur	.	16a\	-tur	.	.	.	.	16d\	-tur	16f\	-tur	.	.	.	.
.	.	.	.	.	.	.	.	16f\	cum	.	16a\	cum	.	.	.	.	16B\	cum	16f\	cum	.	.	.	.
.	.	.	.	.	.	.	.	16f\	I-	.	16a\	I-	.	.	.	.	16A\	I-	16f\	I-	.	.	.	.
!	!	!	!	!	!	!	!	!	!	!	!	!	!	!	!	!	!	!	!	!LO:PB:g=original	!	!	!	!
.	.	.	.	.	.	.	.	16f\	-sa-	.	16a\	-sa-	.	.	.	.	16A\	-sa-	16f\	-sa-	.	.	.	.
.	.	.	.	.	.	.	.	16f\	-ac	.	16a\	-ac	.	.	.	.	16A\	-ac	16f\	-ac	.	.	.	.
.	.	.	.	.	.	16e\LL	-mo-	16f\	im-	.	16a\	im-	.	.	.	.	16A\	im-	16f\	im-	.	16ee\LL	-mo-	.
.	.	.	.	.	.	16d\JJ	.	16f\	-mo-	.	16a\	-mo-	.	.	.	.	16A\	-mo-	16f\	-mo-	.	16dd\JJ)	.	.
=31	=31	=31	=31	=31	=31	=31	=31	=31	=31	=31	=31	=31	=31	=31	=31	=31	=31	=31	=31	=31	=31	=31	=31	=31
!LO:PB:g=original	!	!	!	!	!	!LO:PB:g=original	!	!LO:PB:g=original	!	!	!	!LO:PB:g=original	!	!	!	!	!LO:PB:g=original	!	!	!	!	!	!	!
2E\	.	2E\	.	2E\	cum	(>4c\	-la-	16e\	-la-	.	16a\	-la-	.	2E\	cum	.	16c\	-la-	16e\	-la-	.	(>4cc\	-la-	.
.	.	.	.	.	.	.	.	16e\	-tur	.	16a\	-tur	.	.	.	.	16c\	-tur	16e\	-tur	.	.	.	.
.	.	.	.	.	.	.	.	16e\	{cum	.	16a\	{cum	.	.	.	.	16c\	{cum	16e\	{cum	.	.	.	.
.	.	.	.	.	.	.	.	16e\	I-	.	16a\	I-	.	.	.	.	16c\	I-	16e\	I-	.	.	.	.
.	.	.	.	.	.	4B\)	.	16e\	-sa-	.	16g#X\	-sa-	.	.	.	.	16d\	-sa-	16e\	-sa-	.	4b\)	.	.
.	.	.	.	.	.	.	.	16e\	-ac	.	16g#\	-ac	.	.	.	.	16d\	-ac	16e\	-ac	.	.	.	.
.	.	.	.	.	.	.	.	16e\	im-	.	16g#\	im-	.	.	.	.	16d\	im-	16e\	im-	.	.	.	.
.	.	.	.	.	.	.	.	16e\	-mo-	.	16g#\	-mo-	.	.	.	.	16d\	-mo-	16e\	-mo-	.	.	.	.
=32	=32	=32	=32	=32	=32	=32	=32	=32	=32	=32	=32	=32	=32	=32	=32	=32	=32	=32	=32	=32	=32	=32	=32	=32
!	!	!	!	!	!	!	!	!	!	!	!	!	!	!	!	!	!	!	!	!	!	!LO:PB:g=original	!	!
4.A\	.	4.A\	.	4.A\	I-	4A\	-tur	16e\	-la-	.	16a\	-la-	.	4.A\	I-	.	16c\	-la	16e\	-la-	.	4a\	-tur	.
.	.	.	.	.	.	.	.	16e\	-tur}	.	16a\	-tur}	.	.	.	.	16c\	-tur}	16e\	tur}	.	.	.	.
.	.	.	.	.	.	.	.	16e\	A-	.	16a\	A-	.	.	.	.	16c\	A-	16e\	A-	.	.	.	.
.	.	.	.	.	.	.	.	16e\	-gnus	.	16a\	-gnus	.	.	.	.	16c\	-gnus	16e\	-gnus	.	.	.	.
.	.	.	.	.	.	4r	.	16e\	Pas-	.	16a\	pas-	.	.	.	.	16c\	Pas-	16e\	Pas-	.	4r	.	.
.	.	.	.	.	.	.	.	16e\	-chae	.	16a\	-chae	.	.	.	.	16c\	-chae	16e\	-chae	.	.	.	.
8A\	.	8A\	.	8A\	-sa-	.	.	16e\	de-	.	16a\	de-	.	8A\	-sa-	.	16c\	de-	16e\	de-	.	.	.	.
.	.	.	.	.	.	.	.	16e\	-pu-	.	16a\	-pu-	.	.	.	.	16c\	-pu-	16e\	-pu-	.	.	.	.
=33	=33	=33	=33	=33	=33	=33	=33	=33	=33	=33	=33	=33	=33	=33	=33	=33	=33	=33	=33	=33	=33	=33	=33	=33
!	!	!	!	!	!	!	!	!	!	!	!LO:PB:g=original	!	!	!	!	!	!	!	!	!	!	!	!	!
4G\	.	4G\	.	4G\	-ac-	4.d\	A-	16fn\	-ta-	.	16b\	-ta-	.	4G\	-ac-	.	16d\	-ta-	16fn\	-ta-	.	4.dd\	A-	.
!	!	!	!	!	!	!	!	!	!	!	!	!	!	!	!	!	!	!	!LO:SIC:v= błąd tekstowy	!	!	!	!	!
.	.	.	.	.	.	.	.	16f\	-tur	.	16b\	-tur	.	.	.	.	16d\	-tor	16f\	-tor	.	.	.	.
.	.	.	.	.	.	.	.	16f\	{A-	.	16b\	{A-	.	.	.	.	16G/	{A-	16f\	{A-	.	.	.	.
.	.	.	.	.	.	.	.	16f\	-gnus	.	16b\	-gnus	.	.	.	.	16G/	-gnus	16f\	-gnus	.	.	.	.
!	!	!	!	!	!	!	!	!	!	!	!	!	!	!	!	!	!	!	!LO:PB:g=original	!	!	!	!	!
4r	.	4r	.	4r	.	.	.	16f\	Pas-	.	16b\	pas-	.	4r	.	.	16G/	Pas-	16f\	Pas-	.	.	.	.
.	.	.	.	.	.	.	.	16f\	-chae	.	16b\	-chae	.	.	.	.	16G/	-chae	16f\	-chae	.	.	.	.
.	.	.	.	.	.	8d\	-gnus	16f\	de-	.	16b\	de-	.	.	.	.	16G/	de-	16f\	de-	.	8dd\	-gnus	.
.	.	.	.	.	.	.	.	16f\	-pu-	.	16b\	-pu-	.	.	.	.	16G/	-pu-	16f\	-pu-	.	.	.	.
=34	=34	=34	=34	=34	=34	=34	=34	=34	=34	=34	=34	=34	=34	=34	=34	=34	=34	=34	=34	=34	=34	=34	=34	=34
!	!	!	!	!	!	!	!	!LO:PB:g=original	!	!	!	!	!	!	!	!	!LO:PB:g=original	!	!	!	!	!	!	!
2C/	.	2C/	.	2C/	-im-	4.e\	pas-	16e\	-ta-	.	16cc\	-ta-	.	2C/	-im-	.	16G/	-ta-	16e\	-ta-	.	(>4.ee\	pas-	.
.	.	.	.	.	.	.	.	16e\	-tur	.	16cc\	tur	.	.	.	.	16G/	-tur	16e\	-tor	.	.	.	.
.	.	.	.	.	.	.	.	16e\	A-	.	16cc\	A-	.	.	.	.	16G/	A-	16e\	A-	.	.	.	.
.	.	.	.	.	.	.	.	16e\	-gnus	.	16cc\	-gnus	.	.	.	.	16G/	-gnus	16e\	-gnus	.	.	.	.
.	.	.	.	.	.	.	.	16e\	Pas-	.	16cc\	pas-	.	.	.	.	16G/	Pas-	16e\	Pas-	.	.	.	.
.	.	.	.	.	.	.	.	16e\	-chae	.	16cc\	-chae	.	.	.	.	16G/	-chae	16e\	-chae	.	.	.	.
.	.	.	.	.	.	(>16d\LL	-chae	16e\	de-	.	16cc\	de-	.	.	.	.	16G/	de-	16e\	de-	.	16dd\LL)	-chae	.
.	.	.	.	.	.	16c\JJ)	.	16e\	-pu-	.	16cc\	-pu-	.	.	.	.	16G/	-pu-	16e\	-pu-	.	16cc\JJ	.	.
=35	=35	=35	=35	=35	=35	=35	=35	=35	=35	=35	=35	=35	=35	=35	=35	=35	=35	=35	=35	=35	=35	=35	=35	=35
2AA/	.	2AA/	.	2AA/	-mo-	(>4.c\	de-	16e\	-ta-	.	16cc\	-ta-	.	2AA/	-mo-	.	16A\	-ta-	16e\	-ta-	.	4.cc\	de-	.
.	.	.	.	.	.	.	.	16e\	-tur}	.	16cc\	-tur}	.	.	.	.	16A\	-tur}	16e\	-tor}	.	.	.	.
.	.	.	.	.	.	.	.	16e\	da-	.	16cc\	da-	.	.	.	.	16A\	da-	16e\	da-	.	.	.	.
.	.	.	.	.	.	.	.	16e\	-tur	.	16cc\	-tur	.	.	.	.	16A\	-tur	16e\	-tur	.	.	.	.
.	.	.	.	.	.	.	.	16e\	man-	.	16cc\	man-	.	.	.	.	16A\	man-	16e\	man-	.	.	.	.
.	.	.	.	.	.	.	.	16e\	-na	.	16cc\	-na	.	.	.	.	16A\	-na	16e\	-na	.	.	.	.
.	.	.	.	.	.	16B\LL)	-pu-	16e\	pa-	.	16cc\	pa-	.	.	.	.	16A\	pa-	16e\	pa-	.	16b\LL	-pu-	.
.	.	.	.	.	.	16A\JJ	.	16e\	-tri-	.	16cc\	-tri-	.	.	.	.	16A\	-tri-	16e\	-tri-	.	16a\JJ	.	.
=36	=36	=36	=36	=36	=36	=36	=36	=36	=36	=36	=36	=36	=36	=36	=36	=36	=36	=36	=36	=36	=36	=36	=36	=36
!	!	!	!	!	!	!	!	!	!	!	!LO:PB:g=original	!	!	!	!	!	!	!	!	!	!	!	!	!
4Fn\	.	4Fn\	.	4Fn\	-la-	(>4.d\	-ta-	8d\	-bus	.	8a\	-bus	.	4Fn\	-la-	.	8A\	-bus	8d\	-bus	.	(>4.dd\	-ta-	.
.	.	.	.	.	.	.	.	16fn\	{da-	.	16a\	{da-	.	.	.	.	16A\	{da-	16fn\	{da-	.	.	.	.
.	.	.	.	.	.	.	.	16f\	-tur	.	16a\	-tur	.	.	.	.	16A\	-tur	16f\	-tur	.	.	.	.
4F\	.	4F\	.	4F\	-tur	.	.	16a\	man-	.	16a\	man-	.	4F\	-tur	.	16A\	man-	16a\	man-	.	.	.	.
.	.	.	.	.	.	.	.	16a\	-na	.	16a\	-na	.	.	.	.	16A\	-na	16a\	-na	.	.	.	.
.	.	.	.	.	.	16c\LL	.	16a\	pa-	.	16a\	pa-	.	.	.	.	16A\	pa-	16a\	pa-	.	16cc\LL	.	.
.	.	.	.	.	.	16d\JJ)	.	16a\	-tri-}	.	16a\	-tri-	.	.	.	.	16A\	-tri-}	16a\	-tri-}	.	16dd\JJ)	.	.
=37	=37	=37	=37	=37	=37	=37	=37	=37	=37	=37	=37	=37	=37	=37	=37	=37	=37	=37	=37	=37	=37	=37	=37	=37
!	!	!	!	!	!	!	!	!LO:PB:g=original	!	!	!	!	!	!LO:PB:g=original	!	!	!LO:PB:g=original	!	!LO:PB:g=original	!	!	!	!	!
2E\	.	(>2E\	.	2E\	A-	4e\	-tur	8e\	-bus	.	8g#X\	-bus}	.	(>2E\	A-	.	8B\	bus	8e\	-bus	.	4ee\	-tur	.
.	.	.	.	.	.	.	.	16g#X\	cum	.	16b\	cum	.	.	.	.	16B\	cum	16g#X\	cum	.	.	.	.
.	.	.	.	.	.	.	.	16g#\	I-	.	16b\	I-	.	.	.	.	16B\	I-	16g#\	I-	.	.	.	.
.	.	.	.	.	.	4r	.	16g#\	-sa-	.	16b\	-sa-	.	.	.	.	16B\	-sa-	16g#\	-sa-	.	4r	.	.
.	.	.	.	.	.	.	.	16g#\	-ac	.	16b\	-ac	.	.	.	.	16B\	-ac	16g#\	-ac	.	.	.	.
.	.	.	.	.	.	.	.	16g#\	im-	.	16b\	im-	.	.	.	.	16B\	im-	16g#\	im-	.	.	.	.
.	.	.	.	.	.	.	.	16g#\	-mo-	.	16b\	-mo-	.	.	.	.	16B\	-mo-	16g#\	-mo-	.	.	.	.
=38	=38	=38	=38	=38	=38	=38	=38	=38	=38	=38	=38	=38	=38	=38	=38	=38	=38	=38	=38	=38	=38	=38	=38	=38
4D\	.	4D\)	.	4D\	-gnus	(>2fn\	da-	16g\	-la-	.	16b\	-la-	.	4D\)	-gnus	.	16B\	-la-	16gnX\	-la-	.	(>2ffn\	da-	>
.	.	.	.	.	.	.	.	16g\	-tur	.	16b\	-tur	.	.	.	.	16B\	-tur	16g\	-tur	.	.	.	.
.	.	.	.	.	.	.	.	16g\	{cum	.	16dd\	{cum	.	.	.	.	16B\	{cum	16g\	{cum	.	.	.	.
.	.	.	.	.	.	.	.	16g\	I-	.	16dd\	I-	.	.	.	.	16B\	I-	16g\	I-	.	.	.	.
8.G\L	.	8.G\	.	8.G\	de-	.	.	16g\	-sa-	.	16dd\	-sa-	.	8.G\	de-	.	16B\	-sa-	16g\	-sa-	.	.	.	.
.	.	.	.	.	.	.	.	16g\	-ac	.	16dd\	-ac	.	.	.	.	16B\	-ac	16g\	-ac	.	.	.	]
.	.	.	.	.	.	.	.	16g\	im-	.	16dd\	im-	.	.	.	.	16B\	im-	16g\	im-	.	.	.	.
16G\Jk	.	16G\	.	16G\	-pu-	.	.	16g\	-mo-	.	16dd\	-mo-	.	16G\	-pu-	.	16B\	mo-	16g\	-mo-	.	.	.	.
=39	=39	=39	=39	=39	=39	=39	=39	=39	=39	=39	=39	=39	=39	=39	=39	=39	=39	=39	=39	=39	=39	=39	=39	=39
!	!	!	!	!LO:PB:g=original	!	!	!	!	!	!	!LO:PB:g=original	!	!	!	!	!	!	!	!	!	!	!	!	!
4C/	.	4C\	.	4C/	-ta-	4e\)	-tur	16g\	-la-	.	16cc\	-la-	.	4C/	-ta-	.	16c\	-la-	16g\	-la-	.	4ee\)	-tur	.
.	.	.	.	.	.	.	.	16g\	-tur}	.	16cc\	-tur}	.	.	.	.	16c\	-tur}	16g\	-tur}	.	.	.	.
.	.	.	.	.	.	.	.	16g\	A-	.	16g\	a-	.	.	.	.	16c\	A-	16g\	A-	.	.	.	.
.	.	.	.	.	.	.	.	16g\	-gnus	.	16g\	-gnus	.	.	.	.	16c\	-gnus	16g\	-gnus	.	.	.	.
4Fn\	.	4Fn\	.	4Fn\	-tur	8fn\	man-	16fn\	pas-	.	16a\	pas-	.	4Fn\	-tur	.	16A\	Pas-	16fn\	Pas-	.	8ffn\	man-	.
.	.	.	.	.	.	.	.	16f\	-chae	.	16a\	-chae	.	.	.	.	16A\	-chae	16f\	-chae	.	.	.	.
.	.	.	.	.	.	8d\	-na	16f\	de-	.	16a\	de-	.	.	.	.	16A\	de-	16f\	de-	.	8dd\	-na	.
.	.	.	.	.	.	.	.	16f\	-pu-	.	16a\	-pu-	.	.	.	.	16A\	-pu-	16f\	-pu-	.	.	.	.
=40	=40	=40	=40	=40	=40	=40	=40	=40	=40	=40	=40	=40	=40	=40	=40	=40	=40	=40	=40	=40	=40	=40	=40	=40
!	!	!	!	!	!	!LO:PB:g=original	!	!LO:PB:g=original	!	!	!	!	!	!	!	!	!LO:PB:g=original	!	!LO:PB:g=original	!	!	!	!	!
8.G\L	.	8.G\L	.	8.G\L	da-	(>2c\	pa-	16e\	-ta-	.	16g\	-ta-	.	8.G\	da-	.	16G/	-ta-	16e\	-ta-	.	2cc\	pa-	.
.	.	.	.	.	.	.	.	16e\	-tur	.	16g\	-tur	.	.	.	.	16G/	-tur	16e\	-tur	.	.	.	.
.	.	.	.	.	.	.	.	16e\	{A-	.	16g\	{a-	.	.	.	.	16G/	{A-	16e\	{A-	.	.	.	.
16G\K	.	16G\K	.	16G\	-tur	.	.	16e\	-gnus	.	16g\	-gnus	.	16G\	-tur	.	16G/	-gnus	16e\	-gnus	.	.	.	.
8.E\	.	8.E\	.	8.E\	man-	.	.	16e\	pas-	.	16g\	pas-	.	8.E\	man-	.	16G/	Pas-	16e\	Pas-	.	.	.	.
.	.	.	.	.	.	.	.	16e\	-chae	.	16g\	-che	.	.	.	.	16G/	-chae	16e\	-chae	.	.	.	.
.	.	.	.	.	.	.	.	16e\	de-	.	16g\	de-	.	.	.	.	16G/	de-	16e\	de-	.	.	.	.
16C/Jk	.	16C/Jk	.	16C\	-na	.	.	16e\	-pu-	.	16g\	-pu-	.	16C/	-na	.	16G/	-pu-	16e\	-pu-	.	.	.	.
=41	=41	=41	=41	=41	=41	=41	=41	=41	=41	=41	=41	=41	=41	=41	=41	=41	=41	=41	=41	=41	=41	=41	=41	=41
!LO:PB:g=original	!	!LO:PB:g=original	!	!	!	!	!	!	!	!	!	!	!	!	!	!	!	!	!	!	!	!LO:PB:g=original	!	!
4GG/	.	4GG/	.	4GG/	pa-	(4.B\)	-tri-	16d\	-ta-	.	16g\	-ta-	.	4GG/	pa-	.	16G/	-ta-	16fn\	-ta-	.	(>4.b\	-tri-	.
.	.	.	.	.	.	.	.	16d\	-tur}	.	16g\	-tur}	.	.	.	.	16G/	-tur}	16f\	-tur}	.	.	.	.
.	.	.	.	.	.	.	.	16d\	da-	.	16g\	da-	.	.	.	.	16G/	da-	16f\	da-	.	.	.	.
.	.	.	.	.	.	.	.	16d\	-tur	.	16g\	-tur	.	.	.	.	16G/	-tur	16f\	-tur	.	.	.	.
4GG/	.	4GG/	.	4GG/	-tri-	.	.	16d\	man-	.	16g\	man-	.	4GG/	-tri-	.	16G/	man-	16f\	man-	.	.	.	.
.	.	.	.	.	.	.	.	16d\	-na	.	16g\	-na	.	.	.	.	16G/	-na	16f\	-na	.	.	.	.
.	.	.	.	.	.	16A\LL	.	16d\	pa-	.	16g\	pa-	.	.	.	.	16G/	pa-	16f\	pa-	.	16a\LL	.	.
.	.	.	.	.	.	16B\JJ)	.	16d\	-tri-	.	16g\	-tri-	.	.	.	.	16G/	-tri-	16f\	-tri-	.	16b\JJ)	.	.
=42	=42	=42	=42	=42	=42	=42	=42	=42	=42	=42	=42	=42	=42	=42	=42	=42	=42	=42	=42	=42	=42	=42	=42	=42
!	!	!	!	!	!	!	!	!	!	!	!LO:PB:g=original	!	!	!	!	!	!	!	!	!	!	!	!	!
4C/	.	4C/	.	4C/	-bus	8c\	-bus	8e\	-bus	.	8g\L	-bus	.	4C/	-bus	.	8G/	-bus	8e\	-bus	.	8cc\	-bus	.
.	.	.	.	.	.	4G/	Bo-	16e\	{da-	.	16g\L	{da-	.	.	.	.	16G/	{da-	16e\	{da-	.	(>4g\	Bo-	.
.	.	.	.	.	.	.	.	16e\	-tur	.	16g\	-tur	.	.	.	.	16G/	-tur	16e\	-tur	.	.	.	.
4r	.	4r	.	4r	.	.	.	16e\	man-	.	16g\	man-	.	4r	.	.	16G/	man-	16e\	ma-	.	.	.	.
.	.	.	.	.	.	.	.	16e\	-na	.	16g\	-na	.	.	.	.	16G/	-na	16e\	-na	.	.	.	.
.	.	.	.	.	.	16A\LL	-ne	16e\	pa-	.	16g\	pa-	.	.	.	.	16G/	pa-	16e\	pa-	.	16a\LL	-ne	.
.	.	.	.	.	.	16B\JJ	.	16e\	-tri}	.	16g\	-tri-	.	.	.	.	16G/	-tri-}	16e\	-tri-}	.	16b\JJ)	.	.
=43	=43	=43	=43	=43	=43	=43	=43	=43	=43	=43	=43	=43	=43	=43	=43	=43	=43	=43	=43	=43	=43	=43	=43	=43
!	!	!	!	!	!	!	!	!LO:PB:g=original	!	!	!	!	!	!	!	!	!LO:PB:g=original	!	!LO:PB:g=original	!	!	!	!	!
4.C/	.	4.C/	.	4.C/	Bo-	8.c\L	pas-	8e\	-bus	.	8g\	-bus}	.	4.C/	Bo-	.	8G/	-bus	8e\	-bus	.	8.cc\L	pa-	.
.	.	.	.	.	.	.	.	16e\	Bo-	.	16g\	Bo-	.	.	.	.	16c\	Bo-	16e\	Bo-	.	.	.	.
.	.	.	.	.	.	16G/Jk	.	16e\	-ne	.	16g\	-ne	.	.	.	.	16c\	-ne	16e\	-ne	.	16g\Jk	.	.
.	.	.	.	.	.	4G/	-tor	16e\	pa-	.	16g\	pa-	.	.	.	.	16c\	Pa-	16e\	pa-	.	4g\	-stor	.
.	.	.	.	.	.	.	.	16e\	-stor	.	16g\	-stor	.	.	.	.	16c\	-stor	16e\	-stor	.	.	.	.
8C/	.	8C/	.	8C/	-ne	.	.	16e\	pa-	.	16g\	pa-	.	8C/	-ne	.	16c\	pa-	16e\	pa-	.	.	.	.
.	.	.	.	.	.	.	.	16e\	-nis	.	16g\	-nis	.	.	.	.	16c\	-nis	16e\	-nis	.	.	.	.
=44	=44	=44	=44	=44	=44	=44	=44	=44	=44	=44	=44	=44	=44	=44	=44	=44	=44	=44	=44	=44	=44	=44	=44	=44
!	!	!	!	!	!	!	!	!	!	!	!	!	!	!LO:PB:g=original	!	!	!	!	!	!	!	!	!	!
4C/	.	4C/	.	4C/	pa-	4.c\	pa-	16e\	ve-	.	16g\	ve-	.	4C/	Pa-	.	16c\	ve-	16e\	ve-	.	(>4.cc\	pa-	.
.	.	.	.	.	.	.	.	16e\	-re	.	16g\	-re	.	.	.	.	16c\	-re	16e\	-re	.	.	.	.
.	.	.	.	.	.	.	.	16e\	{Bo-	.	16g\	{Bo-	.	.	.	.	16c\	{Bo-	16e\	{Bo-	.	.	.	.
.	.	.	.	.	.	.	.	16e\	-ne	.	16g\	-ne	.	.	.	.	16c\	-ne	16e\	-ne	.	.	.	.
8C/	.	8C/	.	8C/	-nis	.	.	16e\	pa-	.	16g\	pa-	.	8C/	-stor	.	16c\	pa-	16e\	pa-	.	.	.	.
.	.	.	.	.	.	.	.	16e\	-stor	.	16g\	-stor	.	.	.	.	16c\	-stor	16e\	stor	.	.	.	.
8r	.	8r	.	8r	.	8e\	-nis	16e\	pa-	.	16g\	pa-	.	8r	.	.	16c\	pa-	16e\	pa-	.	8ee\)	-nis	.
.	.	.	.	.	.	.	.	16e\	-nis	.	16g\	-nis	.	.	.	.	16c\	-nis	16e\	-nis	.	.	.	.
=45	=45	=45	=45	=45	=45	=45	=45	=45	=45	=45	=45	=45	=45	=45	=45	=45	=45	=45	=45	=45	=45	=45	=45	=45
!	!	!	!	!	!	!	!	!	!	!	!LO:PB:g=original	!	!	!	!	!	!	!	!	!	!	!	!	!
2G\	.	2G\	.	2G\	pa-	(>4.d\	ve-	16fn\	ve-	.	16g\	ve-	.	2G\	Pa-	.	16B\	ve-	16fn\	ve-	.	(>4.dd\	ve-	.
.	.	.	.	.	.	.	.	16f\	-re}	.	16g\	-re}	.	.	.	.	16B\	-re}	16f\	-re}	.	.	.	.
.	.	.	.	.	.	.	.	16f\	Je-	.	16g\	Je-	.	.	.	.	16B\	Je-	16f\	Je-	.	.	.	.
.	.	.	.	.	.	.	.	16f\	-su	.	16g\	-su	.	.	.	.	16B\	-su	16f\	-su	.	.	.	.
.	.	.	.	.	.	.	.	16f\	no-	.	16g\	no-	.	.	.	.	16B\	no-	16f\	no-	.	.	.	.
.	.	.	.	.	.	.	.	16f\	-stri	.	16g\	-stri	.	.	.	.	16B\	-stri	16f\	-stri	.	.	.	.
.	.	.	.	.	.	16d\LL	-re	16f\	mi-	.	16g\	mi-	.	.	.	.	16B\	mi-	16f\	mi-	.	16dd\LL	-re	.
.	.	.	.	.	.	16e\JJ)	.	16f\	-se-	.	16g\	-se-	.	.	.	.	16B\	-se-	16f\	-se-	.	16ee\JJ)	.	.
=46	=46	=46	=46	=46	=46	=46	=46	=46	=46	=46	=46	=46	=46	=46	=46	=46	=46	=46	=46	=46	=46	=46	=46	=46
!	!	!	!	!	!	!	!	!LO:PB:g=original	!	!	!	!	!	!	!	!	!LO:PB:g=original	!	!LO:PB:g=original	!	!	!	!	!
2C/	.	2C/	.	2C/	-nis	4.c\	Je-	16e\	-re-	.	16g\	-re-	.	2C/	-nis	.	16c\	-re-	16e\	-re-	.	4.cc\	Je-	.
.	.	.	.	.	.	.	.	16e\	-re	.	16g\	-re	.	.	.	.	16c\	-re	16e\	-re	.	.	.	.
.	.	.	.	.	.	.	.	16e\	{Je-	.	16g\	{Je-	.	.	.	.	16c\	{Je-	16e\	{Je-	.	.	.	.
.	.	.	.	.	.	.	.	16e\	-su	.	16g\	-su	.	.	.	.	16c\	-su	16e\	su	.	.	.	.
.	.	.	.	.	.	.	.	16e\	no-	.	16g\	no-	.	.	.	.	16c\	no-	16e\	no-	.	.	.	.
.	.	.	.	.	.	.	.	16e\	stri	.	16g\	-stri	.	.	.	.	16c\	-stri	16e\	-stri	.	.	.	.
.	.	.	.	.	.	8c\	-su	16e\	mi-	.	16g\	mi-	.	.	.	.	16c\	mi-	16e\	mi-	.	8cc\	-su	.
.	.	.	.	.	.	.	.	16e\	-se-	.	16g\	-se-	.	.	.	.	16c\	se-	16e\	-se-	.	.	.	.
=47	=47	=47	=47	=47	=47	=47	=47	=47	=47	=47	=47	=47	=47	=47	=47	=47	=47	=47	=47	=47	=47	=47	=47	=47
2Fn\	.	2Fn\	.	2Fn\	ve-	(>8.c\L	no-	16fn\	-re-	.	16a\	-re-	.	2Fn\	ve-	.	16c\	-re-	16fn\	-re-	.	(>8.cc\L	no-	.
.	.	.	.	.	.	.	.	16f\	-re}	.	16a\	-re}	.	.	.	.	16c\	-re}	16f\	-re}	.	.	.	.
.	.	.	.	.	.	.	.	16f\	Bo-	.	16a\	Bo-	.	.	.	.	16c\	Bo-	16f\	Bo-	.	.	.	.
.	.	.	.	.	.	16A\Jk)	.	16f\	-ne	.	16a\	-ne	.	.	.	.	16c\	-ne	16f\	-ne	.	16a\Jk)	.	.
.	.	.	.	.	.	4A\	-stri	16f\	pa-	.	16a\	pa-	.	.	.	.	16c\	Pa-	16f\	pa-	.	4a\	-stri	.
.	.	.	.	.	.	.	.	16f\	-stor	.	16a\	-stor	.	.	.	.	16c\	-stor	16f\	-stor	.	.	.	.
.	.	.	.	.	.	.	.	16f\	pa-	.	16a\	pa-	.	.	.	.	16c\	pa-	16f\	pa-	.	.	.	.
.	.	.	.	.	.	.	.	16f\	-nis	.	16a\	-nis	.	.	.	.	16c\	-nis	16f\	-nis	.	.	.	.
=48	=48	=48	=48	=48	=48	=48	=48	=48	=48	=48	=48	=48	=48	=48	=48	=48	=48	=48	=48	=48	=48	=48	=48	=48
!	!	!	!	!	!	!LO:PB:g=original	!	!	!	!	!LO:PB:g=original	!	!	!	!	!	!	!	!	!	!	!	!	!
2D\	.	2D\	.	2D\	-re	(>4.fn\	mi-	16fn\	ve-	.	16a\	ve-	.	2D\	-re	.	16d\	ve-	16fn\	ve-	.	(>4.ffn\	Mi-	.
.	.	.	.	.	.	.	.	16f\	-re	.	16a\	-re	.	.	.	.	16d\	-re	16f\	-re	.	.	.	.
.	.	.	.	.	.	.	.	16f\	Je-	.	16a\	Je-	.	.	.	.	16A/	Je-	16f\	Je-	.	.	.	.
.	.	.	.	.	.	.	.	16f\	-su	.	16a\	-su	.	.	.	.	16A/	-su	16f\	-su	.	.	.	.
.	.	.	.	.	.	.	.	16f\	no-	.	16a\	no-	.	.	.	.	16A/	no-	16f\	no-	.	.	.	.
.	.	.	.	.	.	.	.	16f\	-stri	.	16a\	-stri	.	.	.	.	16A/	-stri	16f\	-stri	.	.	.	.
.	.	.	.	.	.	16e\LL	-se-	16f\	mi-	.	16a\	mi-	.	.	.	.	16A/	mi-	16f\	mi-	.	16ee\LL)	-se-	.
.	.	.	.	.	.	16d\JJ)	.	16f\	-se-	.	16a\	-se-	.	.	.	.	16A/	-se-	16f\	-se-	.	16dd\JJ	.	.
=49	=49	=49	=49	=49	=49	=49	=49	=49	=49	=49	=49	=49	=49	=49	=49	=49	=49	=49	=49	=49	=49	=49	=49	=49
!	!	!	!	!LO:PB:g=original	!	!	!	!LO:PB:g=original	!	!	!	!	!	!	!	!	!LO:PB:g=original	!	!LO:PB:g=original	!	!	!LO:PB:g=original	!	!
2E\	.	2E\	.	2E\	nos	(>4c\	-re-	16e\	-re-	.	16a\	-re-	.	2E\	nos	.	16c\	-re-	16e\	-re-	.	(>4cc\	-re-	.
.	.	.	.	.	.	.	.	16e\	-re	.	16a\	-re	.	.	.	.	16c\	-re	16e\	-re	.	.	.	.
.	.	.	.	.	.	.	.	16e\	{Je-	.	16a\	{Je-	.	.	.	.	16c\	{Je-	16e\	{Je-	.	.	.	.
.	.	.	.	.	.	.	.	16e\	su	.	16a\	-su	.	.	.	.	16c\	-su	16e\	-su	.	.	.	.
.	.	.	.	.	.	4B\)	.	16e\	no-	.	16g#X\	no-	.	.	.	.	16d\	no-	16e\	no-	.	4b\)	.	.
.	.	.	.	.	.	.	.	16e\	-stri	.	16g#\	-stri	.	.	.	.	16d\	-stri	16e\	-stri	.	.	.	.
.	.	.	.	.	.	.	.	16e\	mi-	.	16g#\	mi-	.	.	.	.	16d\	mi-	16e\	mi-	.	.	.	.
.	.	.	.	.	.	.	.	16e\	-se-	.	16g#\	-se-	.	.	.	.	16d\	-se-	16e\	-se-	.	.	.	.
=50	=50	=50	=50	=50	=50	=50	=50	=50	=50	=50	=50	=50	=50	=50	=50	=50	=50	=50	=50	=50	=50	=50	=50	=50
!LO:PB:g=original	!	!LO:PB:g=original	!	!	!	!	!	!	!	!	!	!	!	!	!	!	!	!	!	!	!	!	!	!
4.A\	.	4.A\	.	4.A\	pas-	4A\	-re.	16e\	-re-	.	16a\	-re-	.	4.A\	pas-	.	16c\	-re-	16e\	-re-	.	4a\	-re	.
.	.	.	.	.	.	.	.	16e\	-re}	.	16a\	-re}	.	.	.	.	16c\	-re}	16e\	-re}	.	.	.	.
.	.	.	.	.	.	.	.	16e\	tu	.	16a\	Tu	.	.	.	.	16c\	tu	16e\	tu	.	.	.	.
.	.	.	.	.	.	.	.	16e\	nos	.	16a\	nos	.	.	.	.	16c\	nos	16e\	nos	.	.	.	.
.	.	.	.	.	.	4r	.	16e\	pa-	.	16a\	pa-	.	.	.	.	16c\	pa-	16e\	pa-	.	4r	.	.
.	.	.	.	.	.	.	.	16e\	-sce	.	16a\	-sce	.	.	.	.	16c\	-sce	16e\	-sce	.	.	.	.
8A\	.	8A\	.	8A\	-ce	.	.	16e\	nos	.	16a\	nos	.	8A\	-ce	.	16c\	nos	16e\	nos	.	.	.	.
.	.	.	.	.	.	.	.	16e\	tu-	.	16a\	tu-	.	.	.	.	16c\	tu-	16e\	tu-	.	.	.	.
=51	=51	=51	=51	=51	=51	=51	=51	=51	=51	=51	=51	=51	=51	=51	=51	=51	=51	=51	=51	=51	=51	=51	=51	=51
!	!	!	!	!	!	!	!	!	!	!	!LO:LB:g=original	!	!	!	!	!	!	!	!	!	!	!	!	!
4G\	.	4G\	.	4G\	nos	4.d\	tu	16fn\	-e-	.	16b\	-e-	.	4G\	nos	.	16d\	-e-	16fn\	-e-	.	4.dd\	tu	.
.	.	.	.	.	.	.	.	16f\	-re	.	16b\	-re	.	.	.	.	16d\	-re	16f\	-re	.	.	.	.
.	.	.	.	.	.	.	.	16f\	{tu	.	16b\	{Tu	.	.	.	.	16G/	{tu	16f\	{tu	.	.	.	.
.	.	.	.	.	.	.	.	16f\	nos	.	16b\	nos	.	.	.	.	16G/	nos	16f\	nos	.	.	.	.
4r	.	4r	.	4r	.	.	.	16f\	bo-	.	16b\	pa-	.	4r	.	.	16G/	pa-	16f\	pa-	.	.	.	.
.	.	.	.	.	.	.	.	16f\	-na	.	16b\	-sce	.	.	.	.	16G/	-sce	16f\	-sce	.	.	.	.
.	.	.	.	.	.	8d\	nos	16f\	fac	.	16b\	nos	.	.	.	.	16G/	nos	16f\	nos	.	8dd\	nos	.
.	.	.	.	.	.	.	.	16f\	vi-	.	16b\	tu-	.	.	.	.	16G/	tu-}	16f\	tu-	.	.	.	.
=52	=52	=52	=52	=52	=52	=52	=52	=52	=52	=52	=52	=52	=52	=52	=52	=52	=52	=52	=52	=52	=52	=52	=52	=52
!	!	!	!	!	!	!	!	!LO:PB:g=original	!	!	!	!	!	!	!	!	!LO:LB:g=original	!	!LO:PB:g=original	!	!	!	!	!
2C/	.	2C/	.	(>2C/	bo-	(>4.e\	pa-	16e\	-de-	.	16cc\	-e-	.	2C/	bo-	.	16G#X/	-e-	16e\	e-	.	(>4.ee\	pas-	.
.	.	.	.	.	.	.	.	16e\	-re}	.	16cc\	-re}	.	.	.	.	16G#/	-re	16e\	-re}	.	.	.	.
.	.	.	.	.	.	.	.	16e\	tu	.	16cc\	tu	.	.	.	.	16G#/	tu	16e\	tu	.	.	.	.
.	.	.	.	.	.	.	.	16e\	nos	.	16cc\	nos	.	.	.	.	16G#/	nos	16e\	nos	.	.	.	.
.	.	.	.	.	.	.	.	16e\	bo-	.	16cc\	bo-	.	.	.	.	16G#/	bo-	16e\	bo-	.	.	.	.
.	.	.	.	.	.	.	.	16e\	-na	.	16cc\	-na	.	.	.	.	16G#/	-na	16e\	-na	.	.	.	.
.	.	.	.	.	.	16d\LL)	-sce	16e\	fac	.	16cc\	fac	.	.	.	.	16G#/	fac	16e\	fac	.	16dd\LL)	-ce	.
.	.	.	.	.	.	16c\JJ	.	16e\	vi-	.	16cc\	vi-	.	.	.	.	16G#/	vi-	16e\	vi-	.	16cc\JJ	.	.
=53	=53	=53	=53	=53	=53	=53	=53	=53	=53	=53	=53	=53	=53	=53	=53	=53	=53	=53	=53	=53	=53	=53	=53	=53
!	!	!	!	!	!	!	!	!	!	!	!LO:TX:a:t=Problem: bład w tekście	!	!	!	!	!LO:SIC:v=błąd w tekście	!	!	!LO:SIC:v= błąd w tekście	!	!	!	!	!
4AA/	.	4AA/	.	4AA/)	.	4.c\	nos	16e\	-de-	.	16cc\	-der-	.	4AA/	.	.	16A\	-des	16e\	-des	.	(>4.cc\	nos	.
.	.	.	.	.	.	.	.	16e\	-re	.	16cc\	{tu	.	.	.	.	16A\	{tu	16e\	{tu	.	.	.	.
.	.	.	.	.	.	.	.	16e\	{tu	.	16cc\	nos	.	.	.	.	16A\	nos	16e\	nos	.	.	.	.
.	.	.	.	.	.	.	.	16e\	nos	.	16cc\	bo-	.	.	.	.	16A\	bo-	16e\	bo-	.	.	.	.
4AA/	.	4AA/	.	4AA/	-na	.	.	16e\	bo-	.	16cc\	-na	.	4AA/	-na	.	16A\	-na	16e\	-na	.	.	.	.
.	.	.	.	.	.	.	.	16e\	-na	.	16cc\	fac	.	.	.	.	16A\	fac	16e\	fac	.	.	.	.
.	.	.	.	.	.	16B\LL	tu-	16e\	fac	.	16cc\	vi-	.	.	.	.	16A\	vi-	16e\	vi-	.	16b\LL)	tu-	.
.	.	.	.	.	.	16A\JJ	.	16e\	vi-	.	16cc\	-der	.	.	.	.	16A\	-des	16e\	-des}	.	16a\JJ	.	.
=54	=54	=54	=54	=54	=54	=54	=54	=54	=54	=54	=54	=54	=54	=54	=54	=54	=54	=54	=54	=54	=54	=54	=54	=54
!	!	!	!	!	!	!	!	!	!	!	!LO:PB:g=original	!	!	!LO:PB:g=original	!	!	!	!	!	!	!	!	!	!
[2D\	.	[2D/	.	[2D\	fac	(<2G/	-e-	16d\	-de-	.	16cc\	.	.	[2D\	fac	.	16A\	.	16d\	.	.	(>2g\	-e-	.
.	.	.	.	.	.	.	.	16d\	-re}	.	16cc\	}	.	.	.	.	16A\	}	16d\	.	.	.	.	.
.	.	.	.	.	.	.	.	16d\	in	.	16cc\	in	.	.	.	.	16A\	in	16d\	in	.	.	.	.
.	.	.	.	.	.	.	.	16d\	ter-	.	16cc\	ter-	.	.	.	.	16A\	ter-	16d\	ter-	.	.	.	.
.	.	.	.	.	.	.	.	16d\	-ra	.	16cc\	-ra	.	.	.	.	16A\	-ra	16d\	-ra	.	.	.	.
.	.	.	.	.	.	.	.	16d\	vi-	.	16cc\	vi-	.	.	.	.	16A\	vi-	16d\	vi-	.	.	.	.
.	.	.	.	.	.	.	.	16d\	-ven-	.	16cc\	-ven-	.	.	.	.	16A\	-ven-	16d\	-ven-	.	.	.	.
.	.	.	.	.	.	.	.	16d\	-ti-	.	16cc\	-ti-	.	.	.	.	16A\	-ti-	16d\	-ti-	.	.	.	.
=55	=55	=55	=55	=55	=55	=55	=55	=55	=55	=55	=55	=55	=55	=55	=55	=55	=55	=55	=55	=55	=55	=55	=55	=55
!	!	!	!	!	!	!	!	!LO:LB:g=original	!	!	!	!	!	!	!	!	!LO:PB:g=original	!	!LO:PB:g=original	!	!	!	!	!
4D\]	.	4D\]	.	4D]/	.	4.F#X/)	-re,	8d\	-um	.	8cc\	-um	.	4D\]	.	.	8A\	-um	8d\	-um	.	4.f#X\)	-re,	.
.	.	.	.	.	.	.	.	16d\	in	.	16cc\	{in	.	.	.	.	16A\	{in	16d\	{in	.	.	.	.
.	.	.	.	.	.	.	.	16d\	ter-	.	16cc\	ter-	.	.	.	.	16A\	ter-	16d\	ter-	.	.	.	.
4D\	.	4D\	.	4D/	vi-	.	.	16d\	-ra	.	16cc\	-ra	.	4D\	vi-	.	16A\	-ra	16d\	-ra	.	.	.	.
.	.	.	.	.	.	.	.	16d\	vi-	.	16cc\	vi-	.	.	.	.	16A\	vi-	16d\	vi-	.	.	.	.
.	.	.	.	.	.	(>16d\LL	in	16f#X\	-ven-	.	16a\	ven-	.	.	.	.	16A\	-ven-	16f#X\	-ven-	.	16dd\LL	in	.
.	.	.	.	.	.	16c\JJ)	.	16f#\	-ti-	.	16a\	-ti-	.	.	.	.	16A\	-ti-	16f#\	-ti-	.	16cc\JJ)	.	.
=56	=56	=56	=56	=56	=56	=56	=56	=56	=56	=56	=56	=56	=56	=56	=56	=56	=56	=56	=56	=56	=56	=56	=56	=56
[2D\	.	[2D\	.	[2D\	-de-	8B\	ter-	8g\	-um	.	8g\	-um}	.	[2D\	-de-	.	8B\	-um}	8g\	-um}	.	4b\	ter-	.
.	.	.	.	.	.	8G/	-ra	16g\	tu	.	16g\	tu	.	.	.	.	16B\	tu	16g\	tu	.	.	.	.
.	.	.	.	.	.	.	.	16g\	nos	.	16g\	nos	.	.	.	.	16B\	nos	16g\	nos	.	.	.	.
.	.	.	.	.	.	4B\	vi-	16g\	bo-	.	16b\	bo-	.	.	.	.	16B\	bo-	16g\	bo-	.	8g\	-ra	.
.	.	.	.	.	.	.	.	16g\	-na	.	16b\	-na	.	.	.	.	16B\	-na	16g\	-na	.	.	.	.
.	.	.	.	.	.	.	.	16g\	fac	.	16g\	fac	.	.	.	.	16B\	fac	16g\	fac	.	8b\	vi-	.
.	.	.	.	.	.	.	.	16g\	vi-	.	16g\	vi-	.	.	.	.	16B\	vi-	16g\	vi-	.	.	.	.
=57	=57	=57	=57	=57	=57	=57	=57	=57	=57	=57	=57	=57	=57	=57	=57	=57	=57	=57	=57	=57	=57	=57	=57	=57
!	!	!	!	!	!	!LO:PB:g=original	!	!	!	!	!LO:PB:g=original	!	!	!	!	!	!	!	!	!	!	!	!	!
2D\_	.	2D\_	.	2D\_	.	[2d\	-ven-	16f#X\	-de-	.	16a\	-de-	.	2D\_	.	.	16A\	-de-	16f#X\	-de-	.	2dd\	-ven-	.
.	.	.	.	.	.	.	.	16f#\	-re	.	16a\	-re	.	.	.	.	16A\	-re	16f#\	-re	.	.	.	.
.	.	.	.	.	.	.	.	16f#\	in	.	16a\	in	.	.	.	.	16A\	in	16f#\	in	.	.	.	.
.	.	.	.	.	.	.	.	16f#\	ter-	.	16a\	ter-	.	.	.	.	16A\	ter-	16f#\	ter-	.	.	.	.
.	.	.	.	.	.	.	.	16g\	-ra	.	16g\	-ra	.	.	.	.	16B\	-ra	16g\	-ra	.	.	.	.
.	.	.	.	.	.	.	.	16g\	vi-	.	16g\	vi-	.	.	.	.	16B\	vi-	16g\	vi-	.	.	.	.
.	.	.	.	.	.	.	.	16g\	-ven-	.	16b\	-ven-	.	.	.	.	16B\	-ven-	16g\	-ven-	.	.	.	.
.	.	.	.	.	.	.	.	16g\	-ti-	.	16b\	-ti-	.	.	.	.	16B\	-ti-	16g\	-ti-	.	.	.	.
=58	=58	=58	=58	=58	=58	=58	=58	=58	=58	=58	=58	=58	=58	=58	=58	=58	=58	=58	=58	=58	=58	=58	=58	=58
!	!	!	!	!	!	!	!	!LO:PB:g=original	!	!	!	!	!	!	!	!	!LO:PB:g=original	!	!LO:LB:g=original	!	!	!LO:PB:g=original	!	!
2D\]	.	2D\]	.	2D\_	.	4d\]	.	8f#\	-um	.	8dd\	-um	.	2D\]	.	.	8A\	-um	8f#\	-um	.	(>4dd\	.	.
.	.	.	.	.	.	.	.	16f#\	in	.	16a\	{in	.	.	.	.	16A\	{in	16f#\	in	.	.	.	.
.	.	.	.	.	.	.	.	16f#\	ter-	.	16a\	ter-	.	.	.	.	16A\	ter-	16f#\	ter-	.	.	.	.
.	.	.	.	.	.	8.c#X\L	-ti-	16e\	-ra	.	16g\	ra	.	.	.	.	16A\	-ra	16e\	-ra	.	8.cc#X\L	-ti-	.
.	.	.	.	.	.	.	.	16e\	vi-	.	16g\	vi-	.	.	.	.	16A\	vi-	16e\	vi-	.	.	.	.
.	.	.	.	.	.	.	.	16e\	-ven-	.	16g\	-ven-	.	.	.	.	16A\	-ven-	16e\	-ven-	.	.	.	.
.	.	.	.	.	.	16d\Jk	.	16d\	-ti-	.	16f#/	-ti-}	.	.	.	.	16A\	-ti-	16d\	-ti-	.	16dd\Jk)	.	.
=59	=59	=59	=59	=59	=59	=59	=59	=59	=59	=59	=59	=59	=59	=59	=59	=59	=59	=59	=59	=59	=59	=59	=59	=59
!	!	!	!	!	!	!	!	!	!	!	!	!	!	!LO:SIC:v=um	!	!	!	!	!	!	!	!	!	!
4.D\	.	4.D\	.	4.D\]	-re	4.d\	-um	4.d\	-um	.	4.f#\	-um	.	4.D\	-um	.	4.A\	-um}	4.d\	-um	.	4.dd\	-um	.
8D\	.	8D\	.	8D\	in	8d\	in	8d\	in	.	8dd\	in	.	8D\	in	.	8d\	in	8d\	in	.	8dd\	in	.
=60	=60	=60	=60	=60	=60	=60	=60	=60	=60	=60	=60	=60	=60	=60	=60	=60	=60	=60	=60	=60	=60	=60	=60	=60
!LO:PB:g=original	!	!	!LO:DY:rj	!	!	!	!	!	!	!	!	!	!	!	!	!	!	!	!	!	!	!	!	!
!	!LO:DY:a	!	!LO:DY:b	!LO:PB:g=original	!	!	!	!	!	!	!	!	!LO:PB:g=original	!	!	!LO:DY:rj	!	!	!	!	!	!	!	!LO:DY:rj
(>8.D\L	f	8.D\L	f	(>8.D\L	te-	(>8.d\L	te-	8.d\L	te-	.	8.dd\	Te-	f	8.D\L	te-	f	(>8.d\L	te-	(>8.d\L	te-	.	(>8.dd\L	te-	f
16A\Jk)	.	16A\Jk	.	16A\Jk)	.	16A\Jk)	.	16a\J	.	.	16a\	.	.	16A\J	.	.	16A\Jk)	.	16a\Jk)	.	.	16a\Jk)	.	.
16F#X\LL	.	16F#X\LL	.	16F#\	-ra	16F#/	-ra	16f#X\	-ra	.	16f#X/	-ra	.	16F#X\	-ra	.	16F#X/	-ra	16f#\	-ra	.	16f#X/	-ra	.
16D\	.	16D\	.	16D\	ri-	16D/	ri-	16d\	ri-	.	16d/	ri-	.	16D\	ri-	.	16D/	ri-	16d\	ri-	.	16d/	ri-	.
16A\	.	16A\	.	16A\	-ven-	16A/	-ven-	16a\	-ven-	.	16a\	-ven-	.	16A\	-ven-	.	16A/	-ven-	16a\	-ven-	.	16a/	-ven-	.
16F#\JJ	.	16F#\JJ	.	16F#\	-ti-	16F#/	-ti-	16f#\	-ti-	.	16f#/	-ti-	.	16F#\	-ti-	.	16F#/	-ti-	16f#\	-ti-	.	16f#/	-ti-	.
=61	=61	=61	=61	=61	=61	=61	=61	=61	=61	=61	=61	=61	=61	=61	=61	=61	=61	=61	=61	=61	=61	=61	=61	=61
!	!	!	!	!	!	!	!	!	!	!	!LO:PB:g=original	!	!	!	!	!	!	!	!	!	!	!	!	!
4.D\	.	4.D\	.	4.D\	-um	4.D/	-um	4.d\	-um.	.	4.d/	-um	.	4D\	-um	.	4.D/	-um	4.d\	-um	.	4.d/	-um	.
.	.	.	.	.	.	.	.	.	.	.	.	.	.	4r	.	.	.	.	.	.	.	.	.	.
8r	.	8r	.	8r	.	8r	.	8r	.	.	8r	.	.	.	.	.	8r	.	8r	.	.	8r	.	.
=62	=62	=62	=62	=62	=62	=62	=62	=62	=62	=62	=62	=62	=62	=62	=62	=62	=62	=62	=62	=62	=62	=62	=62	=62
!	!	!	!LO:DY:rj	!	!	!	!	!	!	!	!	!	!	!	!	!	!	!	!	!	!	!	!	!
!	!	!	!LO:DY:b	!	!	!	!	!	!	!	!	!	!	!	!	!	!	!	!	!	!	!	!	!LO:DY:a
2r	.	4.G\	p	2r	.	2r	.	2r	.	.	2r	.	.	(>4.G\	tu	.	(>4.B\	tu	(>4.g\	Tu	.	4.g\	tu	p<
.	.	8D\	.	.	.	.	.	.	.	.	.	.	.	8D\)	.	.	8d\)	.	8f#\	.	.	8a\	.	[
=63	=63	=63	=63	=63	=63	=63	=63	=63	=63	=63	=63	=63	=63	=63	=63	=63	=63	=63	=63	=63	=63	=63	=63	=63
!	!	!	!	!	!	!	!	!	!	!LO:DY:a	!	!	!	!LO:PB:g=original	!	!	!	!	!	!	!	!	!	!
4.D\	.	4D\	.	4.D\	Tu	2d\	Tu	(>4.f#\	Tu,	p	(>4.a\	Tu	p	4D\	qui	.	4d\	qui	4f#\)	qui	.	4a\	qui	]
.	.	4r	.	.	.	.	.	.	.	.	.	.	.	4r	.	.	4r	.	4r	.	.	4r	.	.
8G\ 8GG\	.	.	.	8G\ 8GG\	.	.	.	8g\)	.	.	8b\)	.	.	.	.	.	.	.	.	.	.	.	.	.
=64	=64	=64	=64	=64	=64	=64	=64	=64	=64	=64	=64	=64	=64	=64	=64	=64	=64	=64	=64	=64	=64	=64	=64	=64
!	!	!	!	!	!	!	!	!	!	!	!	!	!	!	!	!	!LO:PB:g=original	!	!	!	!	!	!	!
4G\ 4GG\	.	(>2G\	.	4G\ 4GG\	qui	4d\	qui	4g\	qui	.	4b\	qui	.	(>2G\	cun-	.	[2d\	cun-	(>2g\	cun-	.	[2b\	cun-	.
4r	.	.	.	4r	.	4r	.	4r	.	.	4r	.	.	.	.	.	.	.	.	.	.	.	.	.
=65	=65	=65	=65	=65	=65	=65	=65	=65	=65	=65	=65	=65	=65	=65	=65	=65	=65	=65	=65	=65	=65	=65	=65	=65
!	!	!	!	!	!	!	!	!LO:PB:g=original	!	!	!	!	!	!	!	!	!	!	!	!	!	!	!	!
2r	.	4E\)	.	2r	.	2r	.	2r	.	.	2r	.	.	4E\)	.	.	4d\]	.	4g#X\)	.	.	4b\]	.	.
.	.	4A\	.	.	.	.	.	.	.	.	.	.	.	4A\	-cta	.	4c\	-cta	[4a\	-cta	.	[4cc\	-cta	.
=66	=66	=66	=66	=66	=66	=66	=66	=66	=66	=66	=66	=66	=66	=66	=66	=66	=66	=66	=66	=66	=66	=66	=66	=66
!	!	!	!	!	!	!	!	!	!	!	!	!	!	!	!	!	!	!	!	!	!	!LO:PB:g=original	!	!
2r	.	4F#\	.	2r	.	2r	.	2r	.	.	2r	.	.	4F#\	scis	.	4d\	scis	4a\]	scis	.	4cc\]	scis	.
!	!	!	!	!	!	!	!	!	!	!	!	!	!	!	!	!	!	!	!LO:SIC:o:v=znaczek jak pauza	!	!	!	!	!
.	.	4G\	.	.	.	.	.	.	.	.	.	.	.	4G\	et	.	4d\	et	4g\	et	.	4b\	et	.
=67	=67	=67	=67	=67	=67	=67	=67	=67	=67	=67	=67	=67	=67	=67	=67	=67	=67	=67	=67	=67	=67	=67	=67	=67
!	!	!	!	!	!	!LO:PB:g=original	!	!	!	!	!	!	!	!	!	!	!	!	!	!	!	!	!	!
4r	.	4D\	.	4r	.	4r	.	4r	.	.	4r	.	.	4D\	va-	.	4d\	va-	(>8.f#\L	va-	.	8.a\L	va-	.
.	.	.	.	.	.	.	.	.	.	.	.	.	.	.	.	.	.	.	16g\Jk)	.	.	16b\Jk	.	.
8F#\	.	8D\	.	8F#\	cun-	8d\	cun-	8a\	cun-	.	8cc\	cun-	.	8D\	-les	.	8d\	-les	8f#\	-les	.	8a\	-les,	.
8G\	.	8r	.	8G\	-cta	8d\	-cta	8g\	-cta	.	8b\	-cta	.	8r	.	.	8r	.	8r	.	.	8r	.	.
=68	=68	=68	=68	=68	=68	=68	=68	=68	=68	=68	=68	=68	=68	=68	=68	=68	=68	=68	=68	=68	=68	=68	=68	=68
!LO:PB:g=original	!	!LO:PB:g=original	!	!	!	!	!	!	!	!	!	!	!	!	!	!	!	!	!	!	!	!	!	!
4.C\	.	2r	.	4.C/	scis	4.e\	scis	4.e\	scis	.	4.a\	scis	.	2r	.	.	2r	.	2r	.	.	2r	.	.
8C#X\	.	.	.	8C#X/	et	8A\	et	8e\	et	.	8g\	et	.	.	.	.	.	.	.	.	.	.	.	.
=69	=69	=69	=69	=69	=69	=69	=69	=69	=69	=69	=69	=69	=69	=69	=69	=69	=69	=69	=69	=69	=69	=69	=69	=69
4D\	.	2r	.	4D/	va-	4A\	va-	4d\	va-	.	8.g\L	va-	.	2r	.	.	(>4d\	va-	2r	.	.	(>4dd\	va-	.
.	.	.	.	.	.	.	.	.	.	.	16f#/Jk	.	.	.	.	.	.	.	.	.	.	.	.	.
8D\	.	.	.	8D/	-les	8A\	-les	8d\	-les,	.	8f#/	-les	.	.	.	.	16d\LL	-les	.	.	.	16dd\LL	-les	.
.	.	.	.	.	.	.	.	.	.	.	.	.	.	.	.	.	16c\	.	.	.	.	16cc\	.	.
8r	.	.	.	8r	.	8r	.	8r	.	.	8r	.	.	.	.	.	16B\)	.	.	.	.	16b\)	.	.
.	.	.	.	.	.	.	.	.	.	.	.	.	.	.	.	.	16A\JJ	.	.	.	.	16a\JJ	.	.
=70	=70	=70	=70	=70	=70	=70	=70	=70	=70	=70	=70	=70	=70	=70	=70	=70	=70	=70	=70	=70	=70	=70	=70	=70
*	*	*	*	*	*	*	*	*	*	*	*	*	*	*	*	*	*	*	*	*	*	*	*	*
2r	.	4.D\	.	2r	.	2r	.	2r	.	.	2r	.	.	(>4.D\	qui	.	2d\	qui	(>4.f#\	qui	.	(>4.a\	qui	.
.	.	8G\ 8GG\	.	.	.	.	.	.	.	.	.	.	.	8GG\ 8G\)	.	.	.	.	8g\)	.	.	8b\	.	.
=71	=71	=71	=71	=71	=71	=71	=71	=71	=71	=71	=71	=71	=71	=71	=71	=71	=71	=71	=71	=71	=71	=71	=71	=71
*	*	*	*	*	*	*	*	*	*	*	*	*	*	*^	*	*	*	*	*	*	*	*	*	*
!	!	!	!	!LO:PB:g=original	!	!	!	!	!	!	!	!	!	!	!	!	!	!	!	!	!	!	!	!	!
4.G\	.	4G\ 4GG\	.	(>4.G\	qui	(>4.d\	qui	[2g\	qui	.	(>4.b\	qui	.	4G\	4GG\	nos	.	4d\	nos	4g\	nos	.	4b\)	nos	.
.	.	4r	.	.	.	.	.	.	.	.	.	.	.	4rcyy	4r	.	.	4r	.	4r	.	.	4r	.	.
8E\	.	.	.	8E\)	.	8c\)	.	.	.	.	8cc\)	.	.	.	.	.	.	.	.	.	.	.	.	.	.
*	*	*	*	*	*	*	*	*	*	*	*	*	*	*v	*v	*	*	*	*	*	*	*	*	*	*
=72	=72	=72	=72	=72	=72	=72	=72	=72	=72	=72	=72	=72	=72	=72	=72	=72	=72	=72	=72	=72	=72	=72	=72	=72
!	!	!	!	!	!	!	!	!	!	!	!LO:PB:g=original	!	!	!	!	!	!	!	!	!	!	!	!	!
4E\	.	[2C/	.	4E\	nos	4c\	nos	4g\]	nos	.	4cc\	nos	.	[2C/	pa-	.	(>2c\	pas-	(>2g\	pas-	.	[2ee\	pa-	.
4r	.	.	.	4r	.	4r	.	4r	.	.	4r	.	.	.	.	.	.	.	.	.	.	.	.	.
=73	=73	=73	=73	=73	=73	=73	=73	=73	=73	=73	=73	=73	=73	=73	=73	=73	=73	=73	=73	=73	=73	=73	=73	=73
2r	.	4C/]	.	2r	.	2r	.	2r	.	.	2r	.	.	4C/]	.	.	4A\)	.	4f#\)	.	.	4ee\]	.	.
.	.	4BB/	.	.	.	.	.	.	.	.	.	.	.	4BB/	-scis	.	4d\	-cis	[4g\	-cis	.	4dd\	-scis	.
=74	=74	=74	=74	=74	=74	=74	=74	=74	=74	=74	=74	=74	=74	=74	=74	=74	=74	=74	=74	=74	=74	=74	=74	=74
!	!	!	!	!	!	!	!	!	!	!	!	!	!	!	!	!	!LO:PB:g=original	!	!	!	!	!	!	!
2r	.	4AA/	.	2r	.	2r	.	2r	.	.	2r	.	.	4AA/	hic	.	4e\	hic	4g\]	hic	.	4cc\	hic	.
.	.	4D/	.	.	.	.	.	.	.	.	.	.	.	4D/	mor-	.	4d\	mor-	4f#\	mor-	.	4a\	mor-	.
=75	=75	=75	=75	=75	=75	=75	=75	=75	=75	=75	=75	=75	=75	=75	=75	=75	=75	=75	=75	=75	=75	=75	=75	=75
!	!	!	!	!	!	!	!	!	!	!	!	!	!	!LO:PB:g=original	!	!	!	!	!LO:PB:g=original	!	!	!LO:PB:g=original	!	!
4r	.	4GG/	.	4r	.	4r	.	4r	.	.	4r	.	.	4GG/	-ta-	.	(>8.d\L	-ta-	4g\	-ta-	.	(>8.b\L	-ta-	.
.	.	.	.	.	.	.	.	.	.	.	.	.	.	.	.	.	16e\Jk)	.	.	.	.	16cc\Jk	.	.
8G\L	.	8GG/	.	8G\	pas-	8B\	pas-	8g\L	pas-	.	8dd\	pas-	.	8GG/	-les	.	8d\	-les	8g\	-les	.	8b\)	-les	.
!LO:TX:t=P:mixed beam:problem	!	!	!	!	!	!	!	!	!	!	!	!	!	!	!	!	!	!	!	!	!	!	!	!
8GG/J	.	8r	.	8C/	-cis	8c\	-cis	8g\J	-cis	.	8ee\	-cis	.	8r	.	.	8r	.	8r	.	.	8r	.	.
=76	=76	=76	=76	=76	=76	=76	=76	=76	=76	=76	=76	=76	=76	=76	=76	=76	=76	=76	=76	=76	=76	=76	=76	=76
4D\	.	2r	.	4D\	hic	4B\	hic	4g\	hic	.	4.dd\	hic	.	2r	.	.	2r	.	2r	.	.	2r	.	.
4D\	.	.	.	4D\	mor-	4A\	mor-	4f#\	mor-	.	.	.	.	.	.	.	.	.	.	.	.	.	.	.
.	.	.	.	.	.	.	.	.	.	.	8cc\	mor-	.	.	.	.	.	.	.	.	.	.	.	.
=77	=77	=77	=77	=77	=77	=77	=77	=77	=77	=77	=77	=77	=77	=77	=77	=77	=77	=77	=77	=77	=77	=77	=77	=77
!	!	!	!	!	!	!	!	!LO:PB:g=original	!	!	!	!	!	!	!	!	!	!	!	!	!	!	!	!
4G\	.	2r	.	4G\	-ta-	8.G/L	-ta-	4g\	-ta-	.	(>8.b\L	-ta-	.	2r	.	.	(>4g\	tu-	2r	.	.	[4gg\	Tu-	.
.	.	.	.	.	.	16A\Jk	.	.	.	.	16cc\Jk)	.	.	.	.	.	.	.	.	.	.	.	.	.
8G\	.	.	.	8G\	-les	8B\	-les	8g\	-les,	.	8dd\	-les	.	.	.	.	16g\LL	os	.	.	.	16gg\LL]	.	.
.	.	.	.	.	.	.	.	.	.	.	.	.	.	.	.	.	16f#\JJ)	.	.	.	.	16ff#\JJ	.	.
8r	.	.	.	8r	.	8r	.	8r	.	.	8r	.	.	.	.	.	16e\LL	.	.	.	.	16ee\LL	-os	.
.	.	.	.	.	.	.	.	.	.	.	.	.	.	.	.	.	16d\JJ	.	.	.	.	16dd\JJ	.	.
=78	=78	=78	=78	=78	=78	=78	=78	=78	=78	=78	=78	=78	=78	=78	=78	=78	=78	=78	=78	=78	=78	=78	=78	=78
!	!	!	!	!	!	!LO:PB:g=original	!	!	!	!	!	!	!	!	!	!	!	!	!	!	!	!	!	!
2r	.	(>4c\	.	2r	.	2r	.	2r	.	.	2r	.	.	(>4c\	tu-	.	(>8.c\L	i-	(>4ee\	tu-	.	(>8.ee\L	i-	.
.	.	.	.	.	.	.	.	.	.	.	.	.	.	.	.	.	16d\Jk)	.	.	.	.	16ff#\Jk)	.	.
.	.	16c\LL)	.	.	.	.	.	.	.	.	.	.	.	16c\LL	-os	.	8e\	-bi	16ee\LL)	-os	.	8gg\	-bi	.
.	.	16B\	.	.	.	.	.	.	.	.	.	.	.	16B\	.	.	.	.	16dd\	.	.	.	.	.
.	.	16A\	.	.	.	.	.	.	.	.	.	.	.	16A\)	.	.	8r	.	16cc\	.	.	8r	.	.
.	.	16G\JJ	.	.	.	.	.	.	.	.	.	.	.	16G\JJ	.	.	.	.	16b\JJ	.	.	.	.	.
=79	=79	=79	=79	=79	=79	=79	=79	=79	=79	=79	=79	=79	=79	=79	=79	=79	=79	=79	=79	=79	=79	=79	=79	=79
!LO:PB:g=original	!	!LO:PB:g=original	!	!	!	!	!	!	!	!	!	!	!	!	!	!	!	!	!	!	!	!	!	!
2r	.	8.F#\L	.	2r	.	(>4d\	tu-	2r	.	.	[4dd\	tu-	.	(>8.F#\L	i-	.	2r	.	(>8.a\L	i-	.	2r	.	.
.	.	16G\	.	.	.	.	.	.	.	.	.	.	.	16G\Jk)	.	.	.	.	16b\Jk)	.	.	.	.	.
.	.	8A\J	.	.	.	16d\LL)	os	.	.	.	16dd\LL]	.	.	8A\	-bi	.	.	.	8cc\	-bi	.	.	.	.
.	.	.	.	.	.	16c\JJ	.	.	.	.	16cc\JJ	.	.	.	.	.	.	.	.	.	.	.	.	.
.	.	8r	.	.	.	16B\LL	.	.	.	.	16b\LL	-os	.	8r	.	.	.	.	8r	.	.	.	.	.
.	.	.	.	.	.	16A\JJ	.	.	.	.	16a\JJ	.	.	.	.	.	.	.	.	.	.	.	.	.
=80	=80	=80	=80	=80	=80	=80	=80	=80	=80	=80	=80	=80	=80	=80	=80	=80	=80	=80	=80	=80	=80	=80	=80	=80
(>4G\	.	2r	.	(>4G\	tu-	8.G/L	i-	[4b\	Tu-	.	(>8.b\L	i-	.	2r	.	.	2r	.	2r	.	.	2r	.	.
.	.	.	.	.	.	16A\Jk	.	.	.	.	16cc\Jk	.	.	.	.	.	.	.	.	.	.	.	.	.
16G\LL)	.	.	.	16G\LL)	.	8B\	-bi	16b\LL]	.	.	8dd\)	-bi	.	.	.	.	.	.	.	.	.	.	.	.
16F#\	.	.	.	16F#\JJ	.	.	.	16a\JJ	.	.	.	.	.	.	.	.	.	.	.	.	.	.	.	.
16E\	.	.	.	16E\LL	-os	8r	.	16g\LL	-os	.	8r	.	.	.	.	.	.	.	.	.	.	.	.	.
16D\JJ	.	.	.	16D\JJ	.	.	.	16f#\JJ	.	.	.	.	.	.	.	.	.	.	.	.	.	.	.	.
=81	=81	=81	=81	=81	=81	=81	=81	=81	=81	=81	=81	=81	=81	=81	=81	=81	=81	=81	=81	=81	=81	=81	=81	=81
8C\	.	8C/	.	8C/	i-	8c\	tu-	8e\	i-	.	8ee\	tu-	.	8C/	tu-	.	(>8.c\L	Tu-	8g\	tu-	.	(>8.ee\L	Tu-	.
8r	.	8r	.	8r	.	8r	.	8r	.	.	8r	.	.	8r	.	.	.	.	8r	.	.	.	.	.
.	.	.	.	.	.	.	.	.	.	.	.	.	.	.	.	.	16d\Jk	.	.	.	.	16ff#\Jk	.	.
8C\	.	8C/	.	8C/	-bi	8c\	-os	8e\	-bi	.	8ee\	-os	.	8C/	-os	.	16e\LL	.	8g\	-os	.	16gg\LL)	.	.
.	.	.	.	.	.	.	.	.	.	.	.	.	.	.	.	.	16B\JJ)	.	.	.	.	16dd#X\JJ	.	.
8r	.	8r	.	8r	.	8r	.	8r	.	.	8r	.	.	8r	.	.	16c\LL	-os	8r	.	.	16ee\LL	-os	.
.	.	.	.	.	.	.	.	.	.	.	.	.	.	.	.	.	16e\JJ	.	.	.	.	16cc\JJ	.	.
=82	=82	=82	=82	=82	=82	=82	=82	=82	=82	=82	=82	=82	=82	=82	=82	=82	=82	=82	=82	=82	=82	=82	=82	=82
!	!	!	!	!	!	!	!	!	!	!	!LO:PB:g=original	!	!	!	!	!	!	!	!	!	!	!	!	!
8C\	.	8C/	.	8C/	i-	(>8.e\L	i-	8g\	i-	.	(>8.cc\L	i-	.	8C/	i-	.	8c\	i-	8g\	i-	.	8ee\	i-	.
8r	.	8r	.	8r	.	.	.	8r	.	.	.	.	.	8r	.	.	8r	.	8r	.	.	8r	.	.
.	.	.	.	.	.	16f#\Jk	.	.	.	.	16dd\Jk	.	.	.	.	.	.	.	.	.	.	.	.	.
8C\	.	8C/	.	8C/	-bi	16g\LL)	-bi	8g\	-bi	.	16ee\LL)	-bi	.	8C/	-bi	.	8c\	-bi	8g\	-bi	.	8ee\	-bi	.
.	.	.	.	.	.	16d#X\JJ	.	.	.	.	16b\JJ	.	.	.	.	.	.	.	.	.	.	.	.	.
8r	.	8r	.	8r	.	16e\LL	.	8r	.	.	16cc\LL	.	.	8r	.	.	8r	.	8r	.	.	8r	.	.
.	.	.	.	.	.	16c\JJ	.	.	.	.	16ee\JJ	.	.	.	.	.	.	.	.	.	.	.	.	.
=83	=83	=83	=83	=83	=83	=83	=83	=83	=83	=83	=83	=83	=83	=83	=83	=83	=83	=83	=83	=83	=83	=83	=83	=83
!	!	!	!	!LO:PB:g=original	!	!	!	!	!	!	!	!	!	!	!	!	!LO:PB:g=original	!	!	!	!	!LO:PB:g=original	!	!
8D\	.	8D\	.	8D\	co-	8B\	com-	8g\	com-	.	[2dd\	co-	.	8D\	co-	.	8B\	co-	8g\	Com-	.	(>4dd\	co-	.
8r	.	8r	.	8r	.	8r	.	8r	.	.	.	.	.	8r	.	.	8r	.	8r	.	.	.	.	.
8D\	.	8D\	.	8D\	-men-	8A\	-men-	8f#\	-men-	.	.	.	.	8D\	-men-	.	8A\	-men-	8f#\	-men-	.	16dd\LL	.	.
.	.	.	.	.	.	.	.	.	.	.	.	.	.	.	.	.	.	.	.	.	.	16cc\JJ	.	.
8r	.	8r	.	8r	.	8r	.	8r	.	.	.	.	.	8r	.	.	8r	.	8r	.	.	16b\LL)	-men-	.
.	.	.	.	.	.	.	.	.	.	.	.	.	.	.	.	.	.	.	.	.	.	16cc\JJ	.	.
=84	=84	=84	=84	=84	=84	=84	=84	=84	=84	=84	=84	=84	=84	=84	=84	=84	=84	=84	=84	=84	=84	=84	=84	=84
!	!	!	!	!	!	!	!	!	!	!	!	!	!	!LO:PB:g=original	!	!	!	!	!LO:PB:g=original	!	!	!	!	!
8.G\L	.	8G\	.	8.G\	-sa-	8.B\	-sa-	8.g\	-sa-	.	4dd\]	.	.	8G\	-sa-	.	8G/	-sa-	8g\	-sa-	.	8b\	-sa-	.
.	.	16G\	.	.	.	.	.	.	.	.	.	.	.	16G\	-les,	.	16G/	-les	16g\	-les	.	16b\	-les	.
16G\Jk	.	16r	.	16G\	-les	16B\	-les	16g\	-les	.	.	.	.	16r	.	.	16r	.	16r	.	.	16r	.	.
8.D\L	.	4r	.	8.D\	co-	8.A\	co-	8.f#\	.	.	16dd\LL	.	.	4r	.	.	4r	.	4r	.	.	4r	.	.
.	.	.	.	.	.	.	.	.	.	.	16cc\JJ	.	.	.	.	.	.	.	.	.	.	.	.	.
.	.	.	.	.	.	.	.	.	.	.	16b\LL	-men-	.	.	.	.	.	.	.	.	.	.	.	.
16D\Jk	.	.	.	16D\	-men-	16A\	-men-	16f#\	.	.	16cc\JJ	.	.	.	.	.	.	.	.	.	.	.	.	.
=85	=85	=85	=85	=85	=85	=85	=85	=85	=85	=85	=85	=85	=85	=85	=85	=85	=85	=85	=85	=85	=85	=85	=85	=85
!	!	!	!	!	!	!LO:PB:g=original	!	!LO:PB:g=original	!	!	!	!	!	!	!	!	!	!	!	!	!	!	!	!
8G\L	.	8.G\L	.	8G\	-sa-	8G/	-sa-	8g\	.	.	8b\	-sa-	.	8.G\	co-	.	8.G/	co-	8.g\	co-	.	8.g\	co-	.
16G\Jk	.	.	.	16G\	-les	16G/	-les	16g\	.	.	16b\	-les,	.	.	.	.	.	.	.	.	.	.	.	.
16r	.	16d\Jk	.	16r	.	16r	.	16r	.	.	16r	.	.	16d\	-hae-	.	16d\	-hae-	16dd\	-hae-	.	16dd\	-hae-	.
4r	.	16B\LL	.	4r	.	4r	.	4r	.	.	4r	.	.	16B\	-re-	.	16B\	-re-	16b\	-re-	.	16b\	-re-	.
.	.	16d\	.	.	.	.	.	.	.	.	.	.	.	16d\	-des	.	16d\	-des	16dd\	-des	.	16dd\	-des	.
.	.	16B\	.	.	.	.	.	.	.	.	.	.	.	16B\	et	.	16B\	et	16b\	et	.	16b\	et	.
.	.	16G\JJ	.	.	.	.	.	.	.	.	.	.	.	16G\	so-	.	16G/	so-	16g\	so-	.	16g\	so-	.
=86	=86	=86	=86	=|:86	=86	=|:86	=86	=86	=86	=86	=86	=86	=86	=86	=86	=86	=86	=86	=86	=86	=86	=86	=86	=86
!LO:LB:g=original	!	!	!	!LO:SIC:v= w  źródle repetycja tych dwóch taktów	!	!LO:SIC:v=w źródle repertycja tych dwóch taktów	!	!	!	!	!	!	!	!	!	!	!	!	!	!	!	!	!	!
8.d\L	.	8D\L	.	8.d\	co-	8.d\L	co-	8.dd\	co-	.	8.dd\	co-	.	8D\	-da-	.	8d\	-da-	8f#\	-da-	.	8a\	-da-	.
.	.	16D\Jk	.	.	.	.	.	.	.	.	.	.	.	16D\	-les	.	16d\	-les	16f#\	-les	.	16a\	-les	.
16A\Jk	.	16r	.	16A\	-hae-	16A\Jk	-hae-	16a\	-hae-	.	16a\	-hae-	.	16r	.	.	16r	.	16r	.	.	16r	.	.
16F#\LL	.	4r	.	16F#\	-re-	16F#/LL	-re-	16f#\	-re-	.	16f#/	-re-	.	4r	.	.	4r	.	4r	.	.	4r	.	.
16A\	.	.	.	16A\	-des	16A\	-des	16a\	-des	.	16a/	-des	.	.	.	.	.	.	.	.	.	.	.	.
16F#\	.	.	.	16F#\	et	16F#/	et	16f#\	et	.	16f#/	et	.	.	.	.	.	.	.	.	.	.	.	.
16D\JJ	.	.	.	16D\	so-	16D/JJ	so-	16d\	so-	.	16d/	so-	.	.	.	.	.	.	.	.	.	.	.	.
=87	=87	=87	=87	=87	=87	=87	=87	=87	=87	=87	=87	=87	=87	=87	=87	=87	=87	=87	=87	=87	=87	=87	=87	=87
!	!	!LO:LB:g=original	!	!	!	!	!	!	!	!	!	!	!	!	!	!	!	!	!	!	!	!	!	!
8G\L	.	8.G\L	.	8G\	-da-	8B\L	-da-	8g\	-da-	.	8b\L	-da-	.	8.G\	{co-	.	8.G/	.	8.g\	{co-	.	8.g\	{co-	.
16G\Jk	.	.	.	16G\	-les	16B\Jk	-les	16g\	-les	.	16b\Jk	-les	.	.	.	.	.	.	.	.	.	.	.	.
16r	.	16d\Jk	.	16r	.	16r	.	16r	.	.	16r	.	.	16d\	-hae-	.	16d\	.	16dd\	-hae-	.	16dd\	-hae-	.
4r	.	16B\LL	.	4r	.	4r	.	4r	.	.	4r	.	.	16B\	-re-	.	16B\	.	16b\	-re	.	16b\	-re-	.
.	.	16d\	.	.	.	.	.	.	.	.	.	.	.	16d\	-des	.	16d\	.	16dd\	des	.	16dd\	-des	.
.	.	16B\	.	.	.	.	.	.	.	.	.	.	.	16B\	et	.	16B\	.	16b\	et	.	16b\	et	.
.	.	16G\JJ	.	.	.	.	.	.	.	.	.	.	.	16G\	so-	.	16G/	.	16g\	so-	.	16g\	so-	.
=88	=88	=88	=88	=:|88	=88	=:|88	=88	=88	=88	=88	=88	=88	=88	=88	=88	=88	=88	=88	=88	=88	=88	=88	=88	=88
!	!	!	!	!	!	!	!	!	!	!	!LO:PB:g=original	!	!	!	!	!	!LO:PB:g=original	!	!	!	!	!LO:PB:g=original	!	!
8.d\L	.	8D\L	.	8.dyy\	co-	8.d\Lyy	co-	8.dd\	.	.	8.dd\	.	.	8D\L	-da-	.	8d\	.	8f#\	-da-	.	8a\L	-da-	.
.	.	16D\Jk	.	.	.	.	.	.	.	.	.	.	.	16D\Jk	-les}	.	16d\	.	16f#\	les}	.	16a\Jk	-les}	.
16A\Jk	.	16r	.	16Ayy\	-hae-	16Ayy\	-hae-	16a\	.	.	16a\	.	.	16r	.	.	16r	.	16r	.	.	16r	.	.
16F#\LL	.	4r	.	16F#yy\	-re-	16F#yy/LL	-re-	16f#\	.	.	16f#/	.	.	4r	.	.	4r	.	4r	.	.	4r	.	.
16A\	.	.	.	16Ayy\	-des	16Ayy\	-des	16a\	.	.	16a/	.	.	.	.	.	.	.	.	.	.	.	.	.
16F#\	.	.	.	16F#yy\	et	16F#yy/	et	16f#\	.	.	16f#/	.	.	.	.	.	.	.	.	.	.	.	.	.
16D\JJ	.	.	.	16Dyy\	so-	16Dyy/JJ	so-	16d\	.	.	16d/	.	.	.	.	.	.	.	.	.	.	.	.	.
=89	=89	=89	=89	=89	=89	=89	=89	=89	=89	=89	=89	=89	=89	=89	=89	=89	=89	=89	=89	=89	=89	=89	=89	=89
!	!	!	!	!	!	!	!	!	!	!	!	!	!	!LO:PB:g=original	!	!	!	!	!LO:PB:g=original	!	!	!	!	!LO:DY:rj
8G\L	.	8.G\L	.	8Gyy\	-da-	8Byy\L	-da-	8g\	.	.	8b\	.	.	8.G\	fac	.	8.g\	fac	8.g\	fac	.	8.gg\	fac	f
16G\Jk	.	.	.	16Gyy\	-les	16Byy\	-les	16g\	.	.	16b\	.	.	.	.	.	.	.	.	.	.	.	.	.
16r	.	16d\Jk	.	16ryy	.	16ryy	.	16r	.	.	16r	.	.	16d\	san-	.	16d\	san-	16dd\	san-	.	16dd\	san-	.
4r	.	16B\LL	.	4ryy	.	4ryy	.	4r	.	.	4r	.	.	16B\	-cto-	.	16B\	-cto-	16b\	-cto-	.	16b\	-cto-	.
.	.	16d\	.	.	.	.	.	.	.	.	.	.	.	16d\	-rum	.	16d\	-rum	16dd\	-rum	.	16dd\	-rum	.
.	.	16B\	.	.	.	.	.	.	.	.	.	.	.	16B\	ci-	.	16B\	ci-	16b\	ci-	.	16b\	ci-	.
.	.	16G\JJ	.	.	.	.	.	.	.	.	.	.	.	16G\	-vi-	.	16G/	-vi-	16g\	-vi-	.	16g\	-vi-	.
=90	=90	=90	=90	=90	=90	=90	=90	=90	=90	=90	=90	=90	=90	=90	=90	=90	=90	=90	=90	=90	=90	=90	=90	=90
8.C/L	.	2C/	.	8.C/	fac	8.c\	fac	8.c\	fac	.	8.cc\	fac	.	2C/	-um.	.	2c\	-um	2g\	-um	.	[2ee\	-um.	.
16G\Jk	.	.	.	16G\	san-	16G/	san-	16g\	san-	.	16g/	san-	.	.	.	.	.	.	.	.	.	.	.	.
!	!	!	!	!LO:PB:g=original	!	!	!	!	!	!	!	!	!	!	!	!	!	!	!	!	!	!	!	!
16E\LL	.	.	.	16E\	-cto-	16E/	-cto-	16e\	-cto-	.	16e/	-cto-	.	.	.	.	.	.	.	.	.	.	.	.
16C/	.	.	.	16C/	-rum	16C/	-rum	16c\	-rum	.	16c/	-rum	.	.	.	.	.	.	.	.	.	.	.	.
16G\	.	.	.	16G\	ci-	16G/	ci-	16g\	ci-	.	16g/	ci-	.	.	.	.	.	.	.	.	.	.	.	.
16E\JJ	.	.	.	16E\	-vi-	16E/	-vi-	16e\	-vi-	.	16e/	-vi-	.	.	.	.	.	.	.	.	.	.	.	.
=91	=91	=91	=91	=91	=91	=91	=91	=91	=91	=91	=91	=91	=91	=91	=91	=91	=91	=91	=91	=91	=91	=91	=91	=91
8C\	.	8C/	.	8C/	-um	8C/	-um	8c\	-um	.	8c/	-um	.	8C/	fac	.	(>8.c\L	fac	8g\	fac	.	8.ee\L]	fac	.
8r	.	8r	.	8r	.	8r	.	8r	.	.	8r	.	.	8r	.	.	.	.	8r	.	.	.	.	>
.	.	.	.	.	.	.	.	.	.	.	.	.	.	.	.	.	16d\Jk	.	.	.	.	16ff#\Jk	.	.
8C\	.	8C/	.	8C/	san-	8e\	san-	8g\	san-	.	8cc\	san-	.	8C/	san-	.	16e\LL	.	8g\	san-	.	16gg\LL	.	.
.	.	.	.	.	.	.	.	.	.	.	.	.	.	.	.	.	16B\JJ)	.	.	.	.	16dd#X\JJ	.	]
8r	.	8r	.	8r	.	8r	.	8r	.	.	8r	.	.	8r	.	.	16c\LL	san-	8r	.	.	16ee\LL	san-	.
.	.	.	.	.	.	.	.	.	.	.	.	.	>	.	.	.	16e\JJ	.	.	.	.	16cc\JJ	.	.
=92	=92	=92	=92	=92	=92	=92	=92	=92	=92	=92	=92	=92	=92	=92	=92	=92	=92	=92	=92	=92	=92	=92	=92	=92
!LO:PB:g=original	!	!LO:PB:g=original	!	!	!	!	!	!	!	!	!	!	!	!	!	!	!	!	!	!	!	!	!	!
8C\	.	8C\	.	8C/	-cto-	(>8.e\L	-cto-	8g\	-cto-	.	8.cc\L	-cto-	.	8C/	-cto-	.	8c\	-cto-	8g\	-cto-	.	8ee\	-cto-	.
8r	.	8r	.	8r	.	.	.	8r	.	.	.	.	.	8r	.	.	8r	.	8r	.	.	8r	.	.
.	.	.	.	.	.	16f#\Jk	.	.	.	.	16dd\Jk	.	.	.	.	.	.	.	.	.	.	.	.	.
8C\	.	8C\	.	8C/	-rum	16g\LL)	.	8g\	-rum	.	16ee\LL	.	.	8C/	-rum	.	8c\	-rum	8g\	-rum	.	8ee\	-rum	.
.	.	.	.	.	.	16d#X\JJ	.	.	.	.	16b\JJ	.	.	.	.	.	.	.	.	.	.	.	.	.
8r	.	8r	.	8r	.	16e\LL	-rum	8r	.	.	16cc\LL	-rum	.	8r	.	.	8r	.	8r	.	.	8r	.	.
.	.	.	.	.	.	16c\JJ	.	.	.	.	16ee\JJ	.	]]	.	.	.	.	.	.	.	.	.	.	.
=93	=93	=93	=93	=93	=93	=93	=93	=93	=93	=93	=93	=93	=93	=93	=93	=93	=93	=93	=93	=93	=93	=93	=93	=93
!	!	!	!	!	!	!LO:PB:g=original	!	!	!	!	!LO:PB:g=original	!	!	!	!	!	!	!	!	!	!	!	!	!
*	*	*^	*	*	*	*	*	*	*	*	*	*	*	*	*	*	*	*	*	*	*	*	*	*
8D\	.	2A/	8D\	.	8D/	ci-	8B\	ci-	8g\	ci-	.	[2dd\	Ci-	]	8D\	ci-	.	8B\	ci-	8g\	ci-	.	(>4dd\	ci-	.
8r	.	.	8r	.	8r	.	8r	.	8r	.	.	.	.	.	8r	.	.	8r	.	8r	.	.	.	.	.
8D\	.	.	8D\	.	8D/	-vi-	8A\	-vi-	8f#\	-vi-	.	.	.	.	8D\	-vi-	.	8A\	-vi-	8f#\	-vi-	.	16dd\LL	.	.
.	.	.	.	.	.	.	.	.	.	.	.	.	.	.	.	.	.	.	.	.	.	.	16cc\JJ)	.	.
8r	.	.	8r	.	8r	.	8r	.	8r	.	.	.	.	.	8r	.	.	8r	.	8r	.	.	16b\LL	-vi-	.
.	.	.	.	.	.	.	.	.	.	.	.	.	.	.	.	.	.	.	.	.	.	.	16cc\JJ	.	.
*	*	*v	*v	*	*	*	*	*	*	*	*	*	*	*	*	*	*	*	*	*	*	*	*	*	*
=94	=94	=94	=94	=94	=94	=94	=94	=94	=94	=94	=94	=94	=94	=94	=94	=94	=94	=94	=94	=94	=94	=94	=94	=94
!	!	!	!	!	!	!	!	!	!	!	!	!	!	!	!	!	!LO:PB:g=original	!	!	!	!	!LO:PB:g=original	!	!
8G\	.	4G\	.	8G\	-um	8B\	-um	8g\	-um	.	4dd\]	.	.	4G\	-um.	.	4G/	-um.	4g\	-um	.	4b\	-um.	.
8r	.	.	.	8r	.	8r	.	8r	.	.	.	.	.	.	.	.	.	.	.	.	.	.	.	.
8.D\L	.	4r	.	8.D\	ci-	8.A\	ci-	8.f#\L	ci-	.	16dd\LL	.	.	4r	.	.	4r	.	4r	.	.	4r	.	.
.	.	.	.	.	.	.	.	.	.	.	16cc\JJ	.	.	.	.	.	.	.	.	.	.	.	.	.
.	.	.	.	.	.	.	.	.	.	.	16b\LL	-vi-	.	.	.	.	.	.	.	.	.	.	.	.
16D\Jk	.	.	.	16D\	-vi-	16A\	-vi-	16f#\Jk	-vi-	.	16cc\JJ	.	.	.	.	.	.	.	.	.	.	.	.	.
=95	=95	=95	=95	=95	=95	=95	=95	=95	=95	=95	=95	=95	=95	=95	=95	=95	=95	=95	=95	=95	=95	=95	=95	=95
!LO:N:vis=4.	!	!	!	!	!	!	!	!	!	!	!	!	!	!	!	!	!	!	!	!	!	!	!	!LO:DY:rj
4GG/	.	4G\	.	4GG/	-um	4G/	-um	4g\	-um	.	4b\	-um	.	(>4G\	A-	.	(>2d\	A-	[2g\	A-	.	(>2b\	A-	p
4r	.	(>16G\LL	.	4r	.	4r	.	4r	.	.	4r	.	.	16G\LL	.	.	.	.	.	.	.	.	.	.
.	.	16F#\	.	.	.	.	.	.	.	.	.	.	.	16F#X\	.	.	.	.	.	.	.	.	.	.
.	.	16G\	.	.	.	.	.	.	.	.	.	.	.	16G\	.	.	.	.	.	.	.	.	.	.
.	.	16B\JJ)	.	.	.	.	.	.	.	.	.	.	.	16B\JJ)	.	.	.	.	.	.	.	.	.	.
=96	=96	=96	=96	=96	=96	=96	=96	=96	=96	=96	=96	=96	=96	=96	=96	=96	=96	=96	=96	=96	=96	=96	=96	=96
!	!	!	!	!	!	!	!	!	!	!	!	!	!	!LO:PB:g=original	!	!	!	!	!	!	!	!	!	!
2r	.	4E\	.	2r	.	2r	.	2r	.	.	2r	.	.	(>4E\	.	.	2e\	.	2g\]	.	.	2b\	.	.
.	.	16E\LL	.	.	.	.	.	.	.	.	.	.	.	16E\LL	.	.	.	.	.	.	.	.	.	.
.	.	16D#X\	.	.	.	.	.	.	.	.	.	.	.	16D#X\	.	.	.	.	.	.	.	.	.	.
.	.	16E\	.	.	.	.	.	.	.	.	.	.	.	16E\	.	.	.	.	.	.	.	.	.	.
.	.	16G\JJ	.	.	.	.	.	.	.	.	.	.	.	16G\JJ)	.	.	.	.	.	.	.	.	.	.
=97	=97	=97	=97	=97	=97	=97	=97	=97	=97	=97	=97	=97	=97	=97	=97	=97	=97	=97	=97	=97	=97	=97	=97	=97
!	!	!	!	!	!	!	!	!	!	!	!	!	!	!	!	!	!	!	!LO:PB:g=original	!	!	!	!	!
2r	.	4C\	.	2r	.	2r	.	2r	.	.	2r	.	.	(>4C\	.	.	4e\)	.	4g\	.	.	2a\)	.	.
.	.	4D\	.	.	.	.	.	.	.	.	.	.	.	4D\)	.	.	(>8d\L	.	(>16g\LL	.	.	.	.	.
.	.	.	.	.	.	.	.	.	.	.	.	.	.	.	.	.	.	.	16f#\	.	.	.	.	.
.	.	.	.	.	.	.	.	.	.	.	.	.	.	.	.	.	8c\J	.	16e\	.	.	.	.	.
.	.	.	.	.	.	.	.	.	.	.	.	.	.	.	.	.	.	.	16f#\JJ)	.	.	.	.	.
=98	=98	=98	=98	=98	=98	=98	=98	=98	=98	=98	=98	=98	=98	=98	=98	=98	=98	=98	=98	=98	=98	=98	=98	=98
!	!	!	!	!	!	!	!	!LO:PB:g=original	!	!	!	!	!	!	!	!	!	!	!	!	!	!	!	!
(>4G\	.	4G\	.	(>4G\	A-	2d\	A-	[2g\	a-	.	[2b\	A-	.	4G\	-men	.	4B\)	-men	4g\	-men	.	4g\	-men	.
16G\LL	.	4r	.	16G\LL	.	.	.	.	.	.	.	.	.	4r	.	.	4r	.	4r	.	.	4r	.	.
16F#\	.	.	.	16F#X\	.	.	.	.	.	.	.	.	.	.	.	.	.	.	.	.	.	.	.	.
16G\	.	.	.	16G\	.	.	.	.	.	.	.	.	.	.	.	.	.	.	.	.	.	.	.	.
16B\JJ)	.	.	.	16B\JJ)	.	.	.	.	.	.	.	.	.	.	.	.	.	.	.	.	.	.	.	.
=99	=99	=99	=99	=99	=99	=99	=99	=99	=99	=99	=99	=99	=99	=99	=99	=99	=99	=99	=99	=99	=99	=99	=99	=99
!LO:PB:g=original	!	!	!	!LO:PB:g=original	!	!	!	!	!	!	!	!	!LO:PB:g=original	!	!	!	!	!	!	!	!	!	!	!
4E\	.	2r	.	(>4E\	.	2e\	.	2g\]	.	.	2b\]	.	.	2r	.	.	2r	.	2r	.	.	2r	.	.
(>16E\LL	.	.	.	16E\LL	.	.	.	.	.	.	.	.	.	.	.	.	.	.	.	.	.	.	.	.
16D#X\	.	.	.	16D#X\	.	.	.	.	.	.	.	.	.	.	.	.	.	.	.	.	.	.	.	.
16E\	.	.	.	16E\	.	.	.	.	.	.	.	.	.	.	.	.	.	.	.	.	.	.	.	.
16G\JJ)	.	.	.	16G\JJ)	.	.	.	.	.	.	.	.	.	.	.	.	.	.	.	.	.	.	.	.
=100	=100	=100	=100	=100	=100	=100	=100	=100	=100	=100	=100	=100	=100	=100	=100	=100	=100	=100	=100	=100	=100	=100	=100	=100
4C\	.	2r	.	4C/	.	(>4e\	.	(>4g\	.	.	2a\	.	.	2r	.	.	2r	.	2r	.	.	2r	.	.
4D\	.	.	.	4D/	.	8.d\L	.	16g\LL	.	.	.	.	.	.	.	.	.	.	.	.	.	.	.	.
.	.	.	.	.	.	.	.	16f#\)	.	.	.	.	.	.	.	.	.	.	.	.	.	.	.	.
.	.	.	.	.	.	.	.	16e\	.	.	.	.	.	.	.	.	.	.	.	.	.	.	.	.
.	.	.	.	.	.	16c\Jk)	.	16f#\JJ	.	.	.	.	.	.	.	.	.	.	.	.	.	.	.	.
=101	=101	=101	=101	=101	=101	=101	=101	=101	=101	=101	=101	=101	=101	=101	=101	=101	=101	=101	=101	=101	=101	=101	=101	=101
4G\	.	2D\	.	4G\	-men	4B\	-men	4g\	-men	.	4g\	-men	.	2D\	a-	.	2d\	a-	(>4g\	a-	.	(>4b\	a-	.
4r	.	.	.	4r	.	4r	.	4r	.	.	4r	.	.	.	.	.	.	.	4f#\)	.	.	4a\)	.	.
=102	=102	=102	=102	=102	=102	=102	=102	=102	=102	=102	=102	=102	=102	=102	=102	=102	=102	=102	=102	=102	=102	=102	=102	=102
2D\	.	4G\	.	2D\	a-	2d\	a-	(>4g\	a-	.	(>4b\	a-	.	4G\	-men	.	4B\	-men	4g\	-men	.	4g\	-men	.
.	.	4r	.	.	.	.	.	4f#\)	.	.	4a\)	.	.	4r	.	.	4r	.	4r	.	.	4r	.	.
=103	=103	=103	=103	=103	=103	=103	=103	=103	=103	=103	=103	=103	=103	=103	=103	=103	=103	=103	=103	=103	=103	=103	=103	=103
4G\	.	2r	.	4G\	-men	4B\	-men	4g\	-men	.	4g\	-men	.	2r	.	.	2r	.	4g\	a-	.	(>4g\	a-	.
4r	.	.	.	4r	.	4r	.	4r	.	.	4r	.	.	.	.	.	.	.	(>16g\LL	.	.	16g\LL)	.	.
.	.	.	.	.	.	.	.	.	.	.	.	.	.	.	.	.	.	.	16f#\	.	.	(>16a\	.	.
.	.	.	.	.	.	.	.	.	.	.	.	.	.	.	.	.	.	.	16e\	.	.	16b\	.	.
.	.	.	.	.	.	.	.	.	.	.	.	.	.	.	.	.	.	.	16f#\JJ)	.	.	16cc\JJ)	.	.
=104	=104	=104	=104	=104	=104	=104	=104	=104	=104	=104	=104	=104	=104	=104	=104	=104	=104	=104	=104	=104	=104	=104	=104	=104
!	!	!	!	!	!	!	!	!	!	!	!LO:PB:g=original	!	!	!	!	!	!	!	!	!	!	!	!	!
2r	.	2D\	.	2r	.	2r	.	2r	.	.	2r	.	.	2D\	a-	.	2d\	a-	(>2f#\	.	.	2a\	.	.
=105	=105	=105	=105	=105	=105	=105	=105	=105	=105	=105	=105	=105	=105	=105	=105	=105	=105	=105	=105	=105	=105	=105	=105	=105
2r	.	4G\	.	2r	.	2r	.	4g\	a-	.	(>4g\	A-	.	4G\	-men	.	4d\	-men	4g\)	-men	.	4b\	-men	.
.	.	4r	.	.	.	.	.	(>16g\LL	.	.	16g\LL)	.	.	4r	.	.	4r	.	4r	.	.	4r	.	.
.	.	.	.	.	.	.	.	16f#\JJ	.	.	(>16a\JJ	.	.	.	.	.	.	.	.	.	.	.	.	.
.	.	.	.	.	.	.	.	24g\LL	.	.	24b\LL	.	.	.	.	.	.	.	.	.	.	.	.	.
.	.	.	.	.	.	.	.	24a\	.	.	24cc\)	.	.	.	.	.	.	.	.	.	.	.	.	.
.	.	.	.	.	.	.	.	24b\JJ)	.	.	24dd\JJ	.	.	.	.	.	.	.	.	.	.	.	.	.
=106	=106	=106	=106	=106	=106	=106	=106	=106	=106	=106	=106	=106	=106	=106	=106	=106	=106	=106	=106	=106	=106	=106	=106	=106
!	!	!	!	!	!	!	!	!	!	!	!	!	!	!	!	!LO:PB:g=original	!	!	!	!	!	!	!	!
2C\	.	2r	.	2C/	a-	2G/	A-	2cc\	.	.	(>2ee\	.	.	2r	.	.	2r	.	2r	.	.	2r	.	.
=107	=107	=107	=107	=107	=107	=107	=107	=107	=107	=107	=107	=107	=107	=107	=107	=107	=107	=107	=107	=107	=107	=107	=107	=107
!	!	!	!	!	!	!	!	!LO:PB:g=original	!	!	!	!	!	!	!	!	!	!	!	!	!	!	!	!
4G\	.	2r	.	4G\	-men	4G/	-men	4b\	-men	.	8dd\)	-men	.	2r	.	.	2r	.	2r	.	.	(>8.b\L	A-	.
.	.	.	.	.	.	.	.	.	.	.	(>16g\LL	A-	.	.	.	.	.	.	.	.	.	.	.	.
.	.	.	.	.	.	.	.	.	.	.	16a\JJ	.	.	.	.	.	.	.	.	.	.	16cc\Jk	.	.
4r	.	.	.	4r	.	4r	.	4r	.	.	16b\LL)	.	.	.	.	.	.	.	.	.	.	16dd\LL	.	.
.	.	.	.	.	.	.	.	.	.	.	16cc\JJ	.	.	.	.	.	.	.	.	.	.	16ee\JJ	.	.
*	*	*	*	*	*	*	*	*	*	*	*	*	*	*	*	*	*	*	*	*	*	*Xtuplet	*	*
.	.	.	.	.	.	.	.	.	.	.	24a\LL	.	.	.	.	.	.	.	.	.	.	24ff#\LL	.	.
.	.	.	.	.	.	.	.	.	.	.	24b\	.	.	.	.	.	.	.	.	.	.	24gg\)	.	.
.	.	.	.	.	.	.	.	.	.	.	24cc\JJ	.	.	.	.	.	.	.	.	.	.	24ee\JJ	.	.
=108	=108	=108	=108	=108	=108	=108	=108	=108	=108	=108	=108	=108	=108	=108	=108	=108	=108	=108	=108	=108	=108	=108	=108	=108
!LO:PB:g=original	!	!	!	!	!	!	!	!	!	!	!	!	!	!	!	!	!	!	!	!	!	!	!	!LO:DY:rj
!	!	!	!	!	!	!	!	!	!	!	!	!	!	!	!	!	!	!	!	!	!	!	!	!LO:DY:b
2D\	f	2D\	f	2D\	a-	(>2A\	A-	2a\	a-	.	[2cc\	.	.	[2D\	A-	f	[2d\	A-	2a\	A-	.	2ff#\	.	ff
=109	=109	=109	=109	=109	=109	=109	=109	=109	=109	=109	=109	=109	=109	=109	=109	=109	=109	=109	=109	=109	=109	=109	=109	=109
2D\	.	2D\	.	2D\	.	2d\)	.	2a\	.	.	2cc\]	.	.	2D\]	.	.	2d\]	.	2a\	.	.	2ff#\	.	.
=110	=110	=110	=110	=110	=110	=110	=110	=110	=110	=110	=110	=110	=110	=110	=110	=110	=110	=110	=110	=110	=110	=110	=110	=110
2G/ 2GG/	.	[2G/ [2GG/	.	[2G/ [2GG/	-men	2d\	-men	2g\	-men	.	2b\	-men	.	[2GG\ [2G\	-men	.	[2d\	-men	[2b\	-men	.	[2gg\	-men	.
=111	=111	=111	=111	=111	=111	=111	=111	=111	=111	=111	=111	=111	=111	=111	=111	=111	=111	=111	=111	=111	=111	=111	=111	=111
*	*	*	*	*	*	*	*	*	*	*	*	*	*	*	*	*	*	*	*	*	*	*	*	*
4.G/ 4.GG/	.	4.G/] 4.GG/]	.	4.G/] 4.GG/]	.	4.d\	.	4.g\	.	.	4.b\	.	.	4.GG\] 4.G\]	.	.	4d\]	.	4.b\]	.	.	4.gg\]	.	.
.	.	.	.	.	.	.	.	.	.	.	.	.	.	.	.	.	4r	.	.	.	.	.	.	.
8r	.	8r	.	8r	.	8r	.	8r	.	.	8r	.	.	8r 8ryy	.	.	.	.	8r	.	.	8r	.	.
==	==	==	==	==	==	==	==	==	==	==	==	==	==	==	==	==	==	==	==	==	==	==	==	==
*-	*-	*-	*-	*-	*-	*-	*-	*-	*-	*-	*-	*-	*-	*-	*-	*-	*-	*-	*-	*-	*-	*-	*-	*-
!!!system-decoration: s1,s2,s3,s4,s5,s6,s7,s8,s9,s10
!!!RDF**kern: > = above
!!!RDF**kern: < = below
!!!ENC: Leszek Kubiak
!!!END: data 2020-03-07
!!!ENC: Berenika Jozajtis
!!!END: 2020-02-07
